Sources/PalmierPro/Resources/DomainPacks/LUTs/malay_wedding_lut1.cube
TITLE "malay_wedding_lut1"
LUT_3D_SIZE 5
0.12604 0.07776 0.05511
0.33300 0.07494 0.05044
0.53476 0.07219 0.04601
0.73454 0.06947 0.04174
0.93300 0.06677 0.03762
0.11702 0.27777 0.03992
0.32355 0.27496 0.03568
0.52489 0.27222 0.03167
0.72425 0.26951 0.02781
0.92228 0.26681 0.02410
0.10682 0.47291 0.02649
0.31292 0.47011 0.02267
0.51385 0.46737 0.01907
0.71279 0.46467 0.01562
0.91042 0.46198 0.01231
0.09533 0.66626 0.01454
0.30101 0.66346 0.01113
0.50153 0.66074 0.00794
0.70007 0.65804 0.00489
0.89729 0.65535 0.00197
0.08256 0.85847 0.00400
0.28782 0.85568 0.00100
0.48793 0.85296 0.00000
0.68607 0.85026 0.00000
0.88289 0.84758 0.00000
0.12519 0.07680 0.26299
0.33211 0.07398 0.25837
0.53383 0.07124 0.25398
0.73357 0.06852 0.24976
0.93198 0.06582 0.24568
0.11603 0.27682 0.24795
0.32251 0.27401 0.24376
0.52381 0.27127 0.23979
0.72313 0.26856 0.23598
0.92112 0.26586 0.23231
0.10568 0.47196 0.23466
0.31174 0.46915 0.23089
0.51262 0.46642 0.22733
0.71153 0.46371 0.22392
0.90911 0.46103 0.22065
0.09405 0.66531 0.22286
0.29969 0.66251 0.21949
0.50016 0.65979 0.21634
0.69866 0.65709 0.21333
0.89584 0.65440 0.21046
0.08114 0.85752 0.21245
0.28636 0.85473 0.20950
0.48642 0.85201 0.20675
0.68452 0.84931 0.20414
0.88130 0.84664 0.20167
0.12435 0.07587 0.46581
0.33123 0.07305 0.46123
0.53291 0.07031 0.45688
0.73261 0.06759 0.45269
0.93098 0.06489 0.44865
0.11505 0.27589 0.45090
0.32149 0.27308 0.44675
0.52275 0.27034 0.44283
0.72202 0.26763 0.43905
0.91997 0.26493 0.43542
0.10456 0.47103 0.43776
0.31057 0.46823 0.43402
0.51142 0.46549 0.43050
0.71028 0.46279 0.42714
0.90782 0.46010 0.42391
0.09279 0.66439 0.42609
0.29838 0.66159 0.42277
0.49882 0.65886 0.41965
0.69727 0.65616 0.41669
0.89441 0.65348 0.41385
0.07974 0.85660 0.41582
0.28491 0.85381 0.41291
0.48494 0.85109 0.41020
0.68299 0.84839 0.40763
0.87973 0.84572 0.40520
0.12351 0.07494 0.66675
0.33034 0.07213 0.66221
0.53198 0.06938 0.65791
0.73164 0.06666 0.65376
0.92997 0.06396 0.64976
0.11406 0.27497 0.65199
0.32046 0.27216 0.64788
0.52167 0.26942 0.64400
0.72091 0.26670 0.64027
0.91882 0.26401 0.63667
0.10343 0.47011 0.63898
0.30940 0.46731 0.63529
0.51021 0.46457 0.63181
0.70903 0.46187 0.62849
0.90653 0.45918 0.62530
0.09153 0.66347 0.62745
0.29708 0.66067 0.62417
0.49747 0.65794 0.62110
0.69588 0.65524 0.61817
0.89298 0.65256 0.61538
0.07834 0.85568 0.61732
0.28347 0.85289 0.61445
0.48345 0.85017 0.61178
0.68146 0.84748 0.60925
0.87816 0.84480 0.60686
0.12266 0.07402 0.86650
0.32945 0.07121 0.86201
0.53105 0.06846 0.85774
0.73066 0.06575 0.85364
0.92895 0.06305 0.84968
0.11307 0.27405 0.85188
0.31942 0.27124 0.84781
0.52060 0.26850 0.84397
0.71979 0.26579 0.84028
0.91766 0.26310 0.83673
0.10230 0.46919 0.83901
0.30823 0.46639 0.83536
0.50899 0.46366 0.83192
0.70777 0.46096 0.82864
0.90523 0.45827 0.82549
0.09026 0.66255 0.82761
0.29577 0.65976 0.82437
0.49612 0.65703 0.82134
0.69449 0.65433 0.81845
0.89155 0.65165 0.81570
0.07693 0.85477 0.81761
0.28202 0.85198 0.81479
0.48196 0.84926 0.81216
0.67993 0.84657 0.80967
0.87659 0.84389 0.80732
