Sources/PalmierPro/Resources/DomainPacks/LUTs/malay_wedding_lut1.cube
TITLE "malay_wedding_lut1"
LUT_3D_SIZE 33
0.12604 0.07776 0.05511
0.15289 0.07739 0.05449
0.17908 0.07704 0.05390
0.20503 0.07668 0.05331
0.23081 0.07633 0.05273
0.25649 0.07598 0.05215
0.28206 0.07563 0.05158
0.30756 0.07529 0.05101
0.33300 0.07494 0.05044
0.35837 0.07460 0.04988
0.38369 0.07425 0.04932
0.40897 0.07391 0.04876
0.43420 0.07356 0.04820
0.45939 0.07322 0.04765
0.48455 0.07288 0.04710
0.50967 0.07254 0.04655
0.53476 0.07219 0.04601
0.55983 0.07185 0.04547
0.58486 0.07151 0.04493
0.60987 0.07117 0.04439
0.63485 0.07083 0.04386
0.65980 0.07049 0.04333
0.68474 0.07015 0.04280
0.70965 0.06981 0.04227
0.73454 0.06947 0.04174
0.75941 0.06914 0.04122
0.78426 0.06880 0.04070
0.80910 0.06846 0.04018
0.83391 0.06812 0.03966
0.85871 0.06778 0.03915
0.88349 0.06745 0.03864
0.90825 0.06711 0.03813
0.93300 0.06677 0.03762
0.12495 0.10370 0.05305
0.15179 0.10334 0.05245
0.17798 0.10298 0.05186
0.20392 0.10263 0.05128
0.22970 0.10228 0.05070
0.25536 0.10193 0.05013
0.28093 0.10158 0.04957
0.30643 0.10123 0.04900
0.33185 0.10088 0.04844
0.35722 0.10054 0.04789
0.38254 0.10019 0.04733
0.40780 0.09985 0.04678
0.43303 0.09951 0.04623
0.45822 0.09916 0.04569
0.48337 0.09882 0.04515
0.50848 0.09848 0.04461
0.53357 0.09814 0.04407
0.55862 0.09780 0.04353
0.58365 0.09746 0.04300
0.60865 0.09712 0.04247
0.63362 0.09678 0.04194
0.65857 0.09644 0.04142
0.68350 0.09610 0.04089
0.70840 0.09576 0.04037
0.73329 0.09542 0.03985
0.75815 0.09508 0.03934
0.78300 0.09474 0.03882
0.80782 0.09440 0.03831
0.83263 0.09407 0.03780
0.85742 0.09373 0.03729
0.88219 0.09339 0.03679
0.90695 0.09305 0.03628
0.93169 0.09272 0.03578
0.12387 0.12901 0.05108
0.15070 0.12864 0.05048
0.17688 0.12829 0.04990
0.20281 0.12793 0.04932
0.22859 0.12758 0.04875
0.25425 0.12723 0.04819
0.27981 0.12689 0.04763
0.30530 0.12654 0.04707
0.33071 0.12619 0.04652
0.35608 0.12585 0.04597
0.38138 0.12550 0.04542
0.40665 0.12516 0.04488
0.43186 0.12481 0.04434
0.45704 0.12447 0.04380
0.48219 0.12413 0.04326
0.50730 0.12379 0.04273
0.53237 0.12345 0.04220
0.55742 0.12311 0.04167
0.58244 0.12276 0.04114
0.60743 0.12242 0.04062
0.63240 0.12208 0.04010
0.65735 0.12174 0.03958
0.68227 0.12141 0.03906
0.70717 0.12107 0.03855
0.73204 0.12073 0.03804
0.75690 0.12039 0.03753
0.78174 0.12005 0.03702
0.80656 0.11971 0.03651
0.83136 0.11938 0.03601
0.85614 0.11904 0.03551
0.88091 0.11870 0.03501
0.90566 0.11836 0.03451
0.93039 0.11803 0.03402
0.12277 0.15408 0.04914
0.14960 0.15372 0.04855
0.17577 0.15336 0.04797
0.20170 0.15301 0.04741
0.22746 0.15266 0.04684
0.25311 0.15231 0.04629
0.27867 0.15196 0.04573
0.30415 0.15161 0.04518
0.32956 0.15127 0.04464
0.35492 0.15092 0.04409
0.38022 0.15058 0.04355
0.40547 0.15023 0.04302
0.43069 0.14989 0.04248
0.45586 0.14955 0.04195
0.48100 0.14920 0.04142
0.50610 0.14886 0.04089
0.53117 0.14852 0.04037
0.55621 0.14818 0.03985
0.58122 0.14784 0.03933
0.60621 0.14750 0.03881
0.63117 0.14716 0.03829
0.65611 0.14682 0.03778
0.68102 0.14648 0.03727
0.70592 0.14614 0.03676
0.73079 0.14580 0.03626
0.75564 0.14547 0.03575
0.78047 0.14513 0.03525
0.80528 0.14479 0.03475
0.83007 0.14445 0.03426
0.85485 0.14411 0.03376
0.87961 0.14378 0.03327
0.90435 0.14344 0.03278
0.92908 0.14310 0.03229
0.12166 0.17900 0.04724
0.14848 0.17864 0.04665
0.17464 0.17828 0.04608
0.20056 0.17793 0.04552
0.22632 0.17758 0.04497
0.25197 0.17723 0.04442
0.27752 0.17688 0.04387
0.30299 0.17653 0.04333
0.32840 0.17619 0.04279
0.35374 0.17584 0.04225
0.37904 0.17550 0.04172
0.40429 0.17516 0.04119
0.42949 0.17481 0.04066
0.45466 0.17447 0.04013
0.47979 0.17413 0.03961
0.50488 0.17379 0.03909
0.52995 0.17345 0.03857
0.55498 0.17310 0.03805
0.57999 0.17276 0.03754
0.60497 0.17242 0.03703
0.62992 0.17208 0.03652
0.65486 0.17174 0.03602
0.67976 0.17141 0.03551
0.70465 0.17107 0.03501
0.72951 0.17073 0.03451
0.75436 0.17039 0.03401
0.77918 0.17005 0.03352
0.80399 0.16971 0.03303
0.82878 0.16938 0.03254
0.85355 0.16904 0.03205
0.87830 0.16870 0.03156
0.90304 0.16837 0.03108
0.92776 0.16803 0.03060
0.12052 0.20381 0.04536
0.14734 0.20345 0.04479
0.17350 0.20309 0.04423
0.19941 0.20274 0.04367
0.22517 0.20239 0.04312
0.25080 0.20204 0.04258
0.27635 0.20169 0.04204
0.30181 0.20135 0.04150
0.32721 0.20100 0.04097
0.35255 0.20066 0.04044
0.37784 0.20031 0.03991
0.40308 0.19997 0.03939
0.42828 0.19962 0.03886
0.45344 0.19928 0.03835
0.47856 0.19894 0.03783
0.50365 0.19860 0.03731
0.52871 0.19826 0.03680
0.55374 0.19792 0.03629
0.57874 0.19758 0.03579
0.60371 0.19724 0.03528
0.62866 0.19690 0.03478
0.65359 0.19656 0.03428
0.67849 0.19622 0.03378
0.70337 0.19588 0.03329
0.72822 0.19554 0.03280
0.75306 0.19520 0.03231
0.77788 0.19487 0.03182
0.80268 0.19453 0.03133
0.82746 0.19419 0.03085
0.85222 0.19385 0.03036
0.87697 0.19352 0.02988
0.90170 0.19318 0.02941
0.92642 0.19284 0.02893
0.11938 0.22854 0.04352
0.14618 0.22817 0.04295
0.17233 0.22782 0.04240
0.19824 0.22746 0.04185
0.22399 0.22711 0.04131
0.24962 0.22676 0.04077
0.27516 0.22642 0.04024
0.30062 0.22607 0.03971
0.32601 0.22572 0.03918
0.35134 0.22538 0.03865
0.37662 0.22504 0.03813
0.40186 0.22469 0.03762
0.42705 0.22435 0.03710
0.45221 0.22401 0.03659
0.47732 0.22366 0.03608
0.50240 0.22332 0.03557
0.52746 0.22298 0.03506
0.55248 0.22264 0.03456
0.57747 0.22230 0.03406
0.60244 0.22196 0.03356
0.62738 0.22162 0.03307
0.65230 0.22128 0.03258
0.67719 0.22094 0.03208
0.70207 0.22061 0.03160
0.72692 0.22027 0.03111
0.75175 0.21993 0.03062
0.77656 0.21959 0.03014
0.80135 0.21925 0.02966
0.82613 0.21892 0.02918
0.85088 0.21858 0.02871
0.87562 0.21824 0.02824
0.90035 0.21791 0.02776
0.92506 0.21757 0.02729
0.11821 0.25319 0.04171
0.14501 0.25282 0.04114
0.17115 0.25247 0.04059
0.19705 0.25211 0.04005
0.22279 0.25176 0.03952
0.24842 0.25141 0.03899
0.27395 0.25107 0.03846
0.29940 0.25072 0.03794
0.32479 0.25037 0.03742
0.35011 0.25003 0.03690
0.37539 0.24969 0.03638
0.40062 0.24934 0.03587
0.42580 0.24900 0.03536
0.45095 0.24866 0.03486
0.47606 0.24832 0.03435
0.50114 0.24797 0.03385
0.52618 0.24763 0.03335
0.55120 0.24729 0.03286
0.57618 0.24695 0.03236
0.60115 0.24661 0.03187
0.62608 0.24627 0.03138
0.65099 0.24593 0.03090
0.67588 0.24560 0.03041
0.70075 0.24526 0.02993
0.72559 0.24492 0.02945
0.75042 0.24458 0.02897
0.77522 0.24424 0.02849
0.80001 0.24391 0.02802
0.82478 0.24357 0.02755
0.84953 0.24323 0.02708
0.87426 0.24290 0.02661
0.89898 0.24256 0.02615
0.92368 0.24222 0.02569
0.11702 0.27777 0.03992
0.14382 0.27741 0.03936
0.16995 0.27705 0.03882
0.19585 0.27670 0.03828
0.22158 0.27635 0.03775
0.24720 0.27600 0.03723
0.27272 0.27565 0.03671
0.29817 0.27531 0.03619
0.32355 0.27496 0.03568
0.34887 0.27462 0.03517
0.37414 0.27427 0.03466
0.39936 0.27393 0.03415
0.42454 0.27359 0.03365
0.44968 0.27325 0.03315
0.47478 0.27290 0.03265
0.49985 0.27256 0.03216
0.52489 0.27222 0.03167
0.54990 0.27188 0.03118
0.57488 0.27154 0.03069
0.59983 0.27120 0.03021
0.62476 0.27086 0.02972
0.64967 0.27052 0.02924
0.67455 0.27018 0.02876
0.69941 0.26985 0.02829
0.72425 0.26951 0.02781
0.74907 0.26917 0.02734
0.77386 0.26883 0.02687
0.79864 0.26850 0.02641
0.82341 0.26816 0.02594
0.84815 0.26782 0.02548
0.87288 0.26749 0.02502
0.89759 0.26715 0.02456
0.92228 0.26681 0.02410
0.11581 0.30231 0.03815
0.14260 0.30194 0.03760
0.16873 0.30159 0.03707
0.19462 0.30123 0.03654
0.22035 0.30088 0.03602
0.24596 0.30054 0.03550
0.27147 0.30019 0.03499
0.29691 0.29984 0.03447
0.32229 0.29950 0.03397
0.34760 0.29915 0.03346
0.37286 0.29881 0.03296
0.39808 0.29846 0.03246
0.42325 0.29812 0.03197
0.44839 0.29778 0.03147
0.47348 0.29744 0.03098
0.49855 0.29710 0.03049
0.52358 0.29676 0.03001
0.54858 0.29642 0.02952
0.57355 0.29608 0.02904
0.59850 0.29574 0.02856
0.62342 0.29540 0.02809
0.64832 0.29506 0.02761
0.67320 0.29472 0.02714
0.69805 0.29438 0.02667
0.72288 0.29404 0.02621
0.74770 0.29371 0.02574
0.77249 0.29337 0.02528
0.79726 0.29303 0.02482
0.82202 0.29269 0.02436
0.84675 0.29236 0.02390
0.87148 0.29202 0.02345
0.89618 0.29168 0.02299
0.92087 0.29135 0.02254
0.11459 0.32679 0.03641
0.14137 0.32643 0.03587
0.16749 0.32607 0.03534
0.19337 0.32572 0.03482
0.21909 0.32537 0.03431
0.24470 0.32502 0.03379
0.27021 0.32467 0.03329
0.29564 0.32433 0.03278
0.32101 0.32398 0.03228
0.34632 0.32364 0.03178
0.37157 0.32329 0.03129
0.39678 0.32295 0.03080
0.42195 0.32261 0.03031
0.44707 0.32227 0.02982
0.47216 0.32192 0.02933
0.49722 0.32158 0.02885
0.52225 0.32124 0.02837
0.54724 0.32090 0.02790
0.57221 0.32056 0.02742
0.59715 0.32022 0.02695
0.62207 0.31988 0.02648
0.64696 0.31955 0.02601
0.67183 0.31921 0.02555
0.69667 0.31887 0.02508
0.72150 0.31853 0.02462
0.74631 0.31819 0.02416
0.77109 0.31786 0.02371
0.79586 0.31752 0.02325
0.82061 0.31718 0.02280
0.84534 0.31684 0.02235
0.87005 0.31651 0.02190
0.89475 0.31617 0.02145
0.91943 0.31584 0.02101
0.11334 0.35123 0.03470
0.14012 0.35087 0.03416
0.16623 0.35051 0.03364
0.19211 0.35016 0.03313
0.21782 0.34981 0.03262
0.24342 0.34946 0.03211
0.26892 0.34912 0.03161
0.29435 0.34877 0.03111
0.31971 0.34842 0.03062
0.34501 0.34808 0.03013
0.37026 0.34774 0.02964
0.39546 0.34739 0.02915
0.42062 0.34705 0.02867
0.44574 0.34671 0.02819
0.47083 0.34637 0.02771
0.49588 0.34603 0.02724
0.52090 0.34569 0.02676
0.54588 0.34535 0.02629
0.57085 0.34501 0.02582
0.59578 0.34467 0.02536
0.62069 0.34433 0.02489
0.64558 0.34399 0.02443
0.67044 0.34365 0.02397
0.69528 0.34331 0.02352
0.72010 0.34297 0.02306
0.74490 0.34264 0.02261
0.76968 0.34230 0.02216
0.79444 0.34196 0.02171
0.81918 0.34163 0.02126
0.84391 0.34129 0.02082
0.86861 0.34095 0.02038
0.89331 0.34062 0.01994
0.91798 0.34028 0.01950
0.11208 0.37564 0.03301
0.13884 0.37527 0.03248
0.16495 0.37492 0.03197
0.19082 0.37456 0.03146
0.21653 0.37421 0.03096
0.24212 0.37387 0.03046
0.26762 0.37352 0.02996
0.29304 0.37317 0.02947
0.31839 0.37283 0.02898
0.34368 0.37248 0.02850
0.36893 0.37214 0.02802
0.39412 0.37180 0.02754
0.41928 0.37145 0.02706
0.44439 0.37111 0.02658
0.46947 0.37077 0.02611
0.49451 0.37043 0.02564
0.51953 0.37009 0.02518
0.54451 0.36975 0.02471
0.56946 0.36941 0.02425
0.59439 0.36907 0.02379
0.61929 0.36873 0.02333
0.64417 0.36839 0.02288
0.66903 0.36805 0.02242
0.69386 0.36772 0.02197
0.71868 0.36738 0.02153
0.74347 0.36704 0.02108
0.76824 0.36670 0.02064
0.79300 0.36637 0.02019
0.81773 0.36603 0.01975
0.84245 0.36569 0.01932
0.86715 0.36536 0.01888
0.89184 0.36502 0.01845
0.91651 0.36469 0.01801
0.11079 0.40000 0.03134
0.13755 0.39964 0.03082
0.16366 0.39928 0.03031
0.18951 0.39893 0.02981
0.21522 0.39858 0.02932
0.24080 0.39823 0.02882
0.26629 0.39789 0.02834
0.29170 0.39754 0.02785
0.31705 0.39719 0.02737
0.34234 0.39685 0.02689
0.36758 0.39651 0.02641
0.39277 0.39616 0.02594
0.41791 0.39582 0.02547
0.44302 0.39548 0.02500
0.46809 0.39514 0.02454
0.49313 0.39480 0.02407
0.51814 0.39446 0.02361
0.54311 0.39412 0.02316
0.56806 0.39378 0.02270
0.59298 0.39344 0.02225
0.61788 0.39310 0.02180
0.64275 0.39276 0.02135
0.66760 0.39242 0.02090
0.69243 0.39209 0.02046
0.71723 0.39175 0.02001
0.74202 0.39141 0.01957
0.76679 0.39107 0.01914
0.79154 0.39074 0.01870
0.81627 0.39040 0.01827
0.84098 0.39006 0.01783
0.86567 0.38973 0.01741
0.89035 0.38939 0.01698
0.91502 0.38906 0.01655
0.10949 0.42434 0.02970
0.13624 0.42397 0.02919
0.16234 0.42362 0.02868
0.18819 0.42326 0.02819
0.21388 0.42291 0.02770
0.23946 0.42257 0.02721
0.26495 0.42222 0.02673
0.29035 0.42187 0.02625
0.31569 0.42153 0.02578
0.34097 0.42118 0.02531
0.36620 0.42084 0.02484
0.39139 0.42050 0.02437
0.41653 0.42016 0.02391
0.44163 0.41981 0.02344
0.46669 0.41947 0.02299
0.49173 0.41913 0.02253
0.51673 0.41879 0.02208
0.54170 0.41845 0.02162
0.56664 0.41811 0.02117
0.59155 0.41777 0.02073
0.61644 0.41744 0.02028
0.64131 0.41710 0.01984
0.66615 0.41676 0.01940
0.69097 0.41642 0.01896
0.71577 0.41608 0.01852
0.74055 0.41575 0.01809
0.76531 0.41541 0.01766
0.79006 0.41507 0.01723
0.81478 0.41474 0.01680
0.83949 0.41440 0.01638
0.86417 0.41406 0.01595
0.88885 0.41373 0.01553
0.91350 0.41339 0.01511
0.10816 0.44864 0.02808
0.13491 0.44827 0.02757
0.16100 0.44792 0.02708
0.18684 0.44757 0.02659
0.21253 0.44722 0.02611
0.23810 0.44687 0.02563
0.26358 0.44652 0.02515
0.28898 0.44618 0.02468
0.31431 0.44583 0.02421
0.33959 0.44549 0.02375
0.36481 0.44514 0.02328
0.38999 0.44480 0.02282
0.41512 0.44446 0.02237
0.44022 0.44412 0.02191
0.46528 0.44378 0.02146
0.49030 0.44344 0.02101
0.51530 0.44310 0.02056
0.54026 0.44276 0.02011
0.56519 0.44242 0.01967
0.59010 0.44208 0.01923
0.61499 0.44174 0.01879
0.63985 0.44140 0.01836
0.66468 0.44106 0.01792
0.68950 0.44073 0.01749
0.71429 0.44039 0.01706
0.73907 0.44005 0.01663
0.76382 0.43971 0.01621
0.78856 0.43938 0.01578
0.81327 0.43904 0.01536
0.83797 0.43871 0.01494
0.86266 0.43837 0.01453
0.88732 0.43803 0.01411
0.91197 0.43770 0.01370
0.10682 0.47291 0.02649
0.13356 0.47255 0.02599
0.15964 0.47219 0.02550
0.18548 0.47184 0.02502
0.21116 0.47149 0.02454
0.23672 0.47114 0.02407
0.26220 0.47080 0.02360
0.28759 0.47045 0.02313
0.31292 0.47011 0.02267
0.33819 0.46976 0.02221
0.36340 0.46942 0.02175
0.38857 0.46908 0.02130
0.41370 0.46874 0.02085
0.43879 0.46839 0.02040
0.46384 0.46805 0.01995
0.48886 0.46771 0.01951
0.51385 0.46737 0.01907
0.53880 0.46703 0.01863
0.56373 0.46669 0.01819
0.58863 0.46635 0.01776
0.61351 0.46602 0.01732
0.63837 0.46568 0.01689
0.66320 0.46534 0.01647
0.68800 0.46500 0.01604
0.71279 0.46467 0.01562
0.73756 0.46433 0.01520
0.76231 0.46399 0.01478
0.78704 0.46365 0.01436
0.81175 0.46332 0.01394
0.83644 0.46298 0.01353
0.86112 0.46265 0.01312
0.88578 0.46231 0.01271
0.91042 0.46198 0.01231
0.10545 0.49716 0.02492
0.13218 0.49680 0.02442
0.15826 0.49644 0.02394
0.18409 0.49609 0.02346
0.20977 0.49574 0.02299
0.23533 0.49539 0.02253
0.26079 0.49505 0.02206
0.28618 0.49470 0.02160
0.31150 0.49436 0.02115
0.33676 0.49401 0.02070
0.36197 0.49367 0.02024
0.38714 0.49333 0.01980
0.41226 0.49298 0.01935
0.43734 0.49264 0.01891
0.46238 0.49230 0.01847
0.48740 0.49196 0.01803
0.51238 0.49162 0.01760
0.53733 0.49128 0.01716
0.56225 0.49094 0.01673
0.58715 0.49060 0.01631
0.61202 0.49027 0.01588
0.63686 0.48993 0.01546
0.66169 0.48959 0.01503
0.68649 0.48925 0.01461
0.71127 0.48892 0.01420
0.73603 0.48858 0.01378
0.76077 0.48824 0.01337
0.78550 0.48791 0.01296
0.81020 0.48757 0.01255
0.83489 0.48723 0.01214
0.85956 0.48690 0.01174
0.88421 0.48656 0.01134
0.90885 0.48623 0.01094
0.10407 0.52138 0.02337
0.13079 0.52102 0.02288
0.15686 0.52066 0.02240
0.18269 0.52031 0.02193
0.20836 0.51996 0.02147
0.23391 0.51962 0.02101
0.25937 0.51927 0.02055
0.28475 0.51892 0.02010
0.31006 0.51858 0.01965
0.33532 0.51824 0.01920
0.36052 0.51789 0.01876
0.38568 0.51755 0.01832
0.41079 0.51721 0.01788
0.43587 0.51687 0.01744
0.46091 0.51653 0.01701
0.48591 0.51619 0.01658
0.51089 0.51585 0.01615
0.53583 0.51551 0.01572
0.56075 0.51517 0.01530
0.58564 0.51483 0.01488
0.61050 0.51449 0.01446
0.63534 0.51415 0.01404
0.66016 0.51381 0.01362
0.68496 0.51348 0.01321
0.70973 0.51314 0.01280
0.73449 0.51280 0.01239
0.75922 0.51247 0.01199
0.78394 0.51213 0.01158
0.80864 0.51179 0.01118
0.83332 0.51146 0.01078
0.85798 0.51112 0.01038
0.88263 0.51079 0.00998
0.90726 0.51045 0.00959
0.10266 0.54558 0.02184
0.12938 0.54522 0.02136
0.15544 0.54486 0.02089
0.18126 0.54451 0.02043
0.20692 0.54416 0.01997
0.23247 0.54382 0.01952
0.25792 0.54347 0.01907
0.28329 0.54312 0.01862
0.30860 0.54278 0.01818
0.33385 0.54244 0.01774
0.35905 0.54209 0.01730
0.38420 0.54175 0.01686
0.40931 0.54141 0.01643
0.43438 0.54107 0.01600
0.45941 0.54073 0.01557
0.48441 0.54039 0.01515
0.50938 0.54005 0.01472
0.53431 0.53971 0.01430
0.55922 0.53937 0.01389
0.58411 0.53903 0.01347
0.60897 0.53869 0.01306
0.63380 0.53835 0.01265
0.65861 0.53802 0.01224
0.68340 0.53768 0.01183
0.70817 0.53734 0.01143
0.73292 0.53700 0.01102
0.75765 0.53667 0.01062
0.78236 0.53633 0.01022
0.80705 0.53600 0.00983
0.83172 0.53566 0.00943
0.85638 0.53532 0.00904
0.88102 0.53499 0.00865
0.90565 0.53465 0.00826
0.10123 0.56976 0.02033
0.12795 0.56939 0.01986
0.15400 0.56904 0.01940
0.17982 0.56869 0.01894
0.20547 0.56834 0.01849
0.23101 0.56799 0.01804
0.25646 0.56765 0.01760
0.28182 0.56730 0.01716
0.30712 0.56696 0.01672
0.33237 0.56661 0.01629
0.35756 0.56627 0.01586
0.38270 0.56593 0.01543
0.40780 0.56559 0.01500
0.43287 0.56525 0.01458
0.45789 0.56490 0.01416
0.48289 0.56456 0.01374
0.50785 0.56422 0.01332
0.53278 0.56389 0.01291
0.55768 0.56355 0.01250
0.58256 0.56321 0.01209
0.60741 0.56287 0.01168
0.63224 0.56253 0.01128
0.65704 0.56219 0.01087
0.68183 0.56186 0.01047
0.70659 0.56152 0.01007
0.73133 0.56118 0.00968
0.75605 0.56085 0.00928
0.78076 0.56051 0.00889
0.80544 0.56018 0.00850
0.83011 0.55984 0.00811
0.85476 0.55950 0.00773
0.87940 0.55917 0.00734
0.90402 0.55883 0.00696
0.09979 0.59391 0.01885
0.12649 0.59355 0.01838
0.15254 0.59320 0.01793
0.17835 0.59284 0.01748
0.20400 0.59250 0.01703
0.22953 0.59215 0.01659
0.25497 0.59180 0.01616
0.28033 0.59146 0.01572
0.30563 0.59111 0.01529
0.33086 0.59077 0.01486
0.35605 0.59043 0.01444
0.38119 0.59008 0.01402
0.40628 0.58974 0.01360
0.43134 0.58940 0.01318
0.45636 0.58906 0.01277
0.48134 0.58872 0.01235
0.50630 0.58838 0.01194
0.53122 0.58804 0.01154
0.55612 0.58770 0.01113
0.58099 0.58737 0.01073
0.60584 0.58703 0.01033
0.63066 0.58669 0.00993
0.65546 0.58635 0.00953
0.68023 0.58602 0.00914
0.70499 0.58568 0.00874
0.72973 0.58534 0.00835
0.75444 0.58501 0.00797
0.77914 0.58467 0.00758
0.80382 0.58433 0.00720
0.82848 0.58400 0.00681
0.85312 0.58366 0.00644
0.87775 0.58333 0.00606
0.90237 0.58299 0.00568
0.09832 0.61805 0.01739
0.12502 0.61769 0.01693
0.15106 0.61733 0.01648
0.17686 0.61698 0.01604
0.20251 0.61663 0.01560
0.22803 0.61628 0.01517
0.25346 0.61594 0.01474
0.27882 0.61559 0.01431
0.30411 0.61525 0.01388
0.32934 0.61491 0.01346
0.35452 0.61456 0.01304
0.37965 0.61422 0.01263
0.40474 0.61388 0.01221
0.42979 0.61354 0.01180
0.45480 0.61320 0.01139
0.47978 0.61286 0.01099
0.50473 0.61252 0.01059
0.52965 0.61218 0.01018
0.55454 0.61184 0.00978
0.57940 0.61150 0.00939
0.60424 0.61117 0.00899
0.62906 0.61083 0.00860
0.65385 0.61049 0.00821
0.67862 0.61015 0.00782
0.70337 0.60982 0.00744
0.72810 0.60948 0.00705
0.75281 0.60914 0.00667
0.77750 0.60881 0.00629
0.80217 0.60847 0.00591
0.82683 0.60814 0.00554
0.85147 0.60780 0.00516
0.87609 0.60747 0.00479
0.90069 0.60713 0.00442
0.09684 0.64217 0.01595
0.12353 0.64180 0.01550
0.14957 0.64145 0.01506
0.17536 0.64110 0.01462
0.20099 0.64075 0.01419
0.22651 0.64040 0.01376
0.25194 0.64006 0.01334
0.27729 0.63971 0.01292
0.30257 0.63937 0.01250
0.32779 0.63902 0.01208
0.35296 0.63868 0.01167
0.37809 0.63834 0.01126
0.40317 0.63800 0.01085
0.42822 0.63766 0.01045
0.45322 0.63732 0.01005
0.47820 0.63698 0.00965
0.50314 0.63664 0.00925
0.52805 0.63630 0.00885
0.55294 0.63596 0.00846
0.57779 0.63562 0.00807
0.60263 0.63528 0.00768
0.62744 0.63495 0.00730
0.65222 0.63461 0.00691
0.67699 0.63427 0.00653
0.70173 0.63393 0.00615
0.72645 0.63360 0.00577
0.75116 0.63326 0.00540
0.77584 0.63293 0.00502
0.80051 0.63259 0.00465
0.82516 0.63226 0.00428
0.84979 0.63192 0.00392
0.87440 0.63159 0.00355
0.89900 0.63125 0.00319
0.09533 0.66626 0.01454
0.12202 0.66590 0.01409
0.14805 0.66555 0.01365
0.17383 0.66520 0.01322
0.19946 0.66485 0.01280
0.22497 0.66450 0.01238
0.25039 0.66415 0.01196
0.27574 0.66381 0.01155
0.30101 0.66346 0.01113
0.32623 0.66312 0.01073
0.35139 0.66278 0.01032
0.37651 0.66244 0.00992
0.40159 0.66210 0.00951
0.42663 0.66176 0.00912
0.45163 0.66142 0.00872
0.47659 0.66108 0.00833
0.50153 0.66074 0.00794
0.52644 0.66040 0.00755
0.55131 0.66006 0.00716
0.57617 0.65972 0.00678
0.60099 0.65938 0.00639
0.62579 0.65905 0.00601
0.65057 0.65871 0.00564
0.67533 0.65837 0.00526
0.70007 0.65804 0.00489
0.72479 0.65770 0.00452
0.74948 0.65736 0.00415
0.77416 0.65703 0.00378
0.79882 0.65669 0.00341
0.82346 0.65636 0.00305
0.84809 0.65602 0.00269
0.87270 0.65569 0.00233
0.89729 0.65535 0.00197
0.09380 0.69034 0.01314
0.12048 0.68998 0.01270
0.14651 0.68963 0.01227
0.17229 0.68928 0.01185
0.19791 0.68893 0.01143
0.22342 0.68858 0.01102
0.24883 0.68823 0.01061
0.27416 0.68789 0.01020
0.29943 0.68755 0.00979
0.32464 0.68720 0.00939
0.34980 0.68686 0.00899
0.37491 0.68652 0.00859
0.39998 0.68618 0.00820
0.42501 0.68584 0.00781
0.45001 0.68550 0.00742
0.47497 0.68516 0.00703
0.49990 0.68482 0.00664
0.52480 0.68448 0.00626
0.54967 0.68414 0.00588
0.57452 0.68380 0.00550
0.59934 0.68347 0.00513
0.62413 0.68313 0.00475
0.64891 0.68279 0.00438
0.67366 0.68245 0.00401
0.69839 0.68212 0.00364
0.72310 0.68178 0.00328
0.74779 0.68145 0.00292
0.77246 0.68111 0.00256
0.79712 0.68077 0.00220
0.82175 0.68044 0.00184
0.84637 0.68010 0.00149
0.87098 0.67977 0.00113
0.89556 0.67944 0.00078
0.09226 0.71441 0.01177
0.11893 0.71404 0.01134
0.14495 0.71369 0.01091
0.17072 0.71334 0.01050
0.19634 0.71299 0.01009
0.22184 0.71264 0.00968
0.24724 0.71230 0.00927
0.27257 0.71195 0.00887
0.29783 0.71161 0.00847
0.32304 0.71127 0.00808
0.34819 0.71093 0.00768
0.37330 0.71058 0.00729
0.39836 0.71024 0.00690
0.42338 0.70990 0.00652
0.44837 0.70956 0.00613
0.47333 0.70922 0.00575
0.49825 0.70888 0.00537
0.52314 0.70854 0.00500
0.54801 0.70821 0.00462
0.57285 0.70787 0.00425
0.59766 0.70753 0.00388
0.62245 0.70719 0.00351
0.64722 0.70686 0.00315
0.67196 0.70652 0.00279
0.69669 0.70618 0.00242
0.72139 0.70585 0.00207
0.74608 0.70551 0.00171
0.77074 0.70518 0.00135
0.79539 0.70484 0.00100
0.82002 0.70451 0.00065
0.84463 0.70417 0.00030
0.86923 0.70384 0.00000
0.89381 0.70350 0.00000
0.09069 0.73846 0.01042
0.11736 0.73809 0.00999
0.14337 0.73774 0.00958
0.16913 0.73739 0.00917
0.19474 0.73704 0.00876
0.22024 0.73669 0.00836
0.24564 0.73635 0.00796
0.27096 0.73600 0.00757
0.29622 0.73566 0.00717
