Sources/PalmierPro/Resources/DomainPacks/LUTs/malay_wedding_lut2.cube
TITLE "malay_wedding_lut2"
LUT_3D_SIZE 9
0.06070 0.03986 0.03084
0.12929 0.03817 0.02884
0.21491 0.03607 0.02636
0.30838 0.03378 0.02366
0.40734 0.03137 0.02081
0.51059 0.02887 0.01785
0.61737 0.02629 0.01481
0.72719 0.02364 0.01169
0.83967 0.02095 0.00852
0.05662 0.10399 0.02415
0.12517 0.10232 0.02217
0.21074 0.10024 0.01971
0.30416 0.09798 0.01704
0.40307 0.09559 0.01423
0.50625 0.09311 0.01130
0.61298 0.09055 0.00830
0.72273 0.08794 0.00522
0.83515 0.08527 0.00209
0.05134 0.18413 0.01589
0.11985 0.18248 0.01394
0.20535 0.18043 0.01152
0.29871 0.17819 0.00889
0.39754 0.17583 0.00612
0.50065 0.17338 0.00324
0.60730 0.17086 0.00027
0.71698 0.16827 0.00000
0.82931 0.16564 0.00000
0.04534 0.27174 0.00702
0.11379 0.27011 0.00510
0.19924 0.26808 0.00272
0.29252 0.26588 0.00013
0.39127 0.26355 0.00000
0.49430 0.26113 0.00000
0.60087 0.25864 0.00000
0.71046 0.25610 0.00000
0.82271 0.25350 0.00000
0.03872 0.36463 0.00000
0.10712 0.36302 0.00000
0.19249 0.36102 0.00000
0.28569 0.35885 0.00000
0.38437 0.35655 0.00000
0.48732 0.35417 0.00000
0.59380 0.35172 0.00000
0.70330 0.34921 0.00000
0.81545 0.34665 0.00000
0.03152 0.46168 0.00000
0.09986 0.46010 0.00000
0.18516 0.45813 0.00000
0.27828 0.45599 0.00000
0.37687 0.45373 0.00000
0.47973 0.45138 0.00000
0.58612 0.44897 0.00000
0.69553 0.44650 0.00000
0.80758 0.44398 0.00000
0.02376 0.56221 0.00000
0.09204 0.56066 0.00000
0.17726 0.55872 0.00000
0.27030 0.55661 0.00000
0.36881 0.55439 0.00000
0.47157 0.55209 0.00000
0.57786 0.54971 0.00000
0.68717 0.54728 0.00000
0.79913 0.54480 0.00000
0.01544 0.66577 0.00000
0.08366 0.66424 0.00000
0.16881 0.66234 0.00000
0.26176 0.66027 0.00000
0.36017 0.65808 0.00000
0.46285 0.65581 0.00000
0.56904 0.65348 0.00000
0.67825 0.65109 0.00000
0.79010 0.64865 0.00000
0.00657 0.77201 0.00000
0.07473 0.77051 0.00000
0.15979 0.76864 0.00000
0.25266 0.76660 0.00000
0.35098 0.76446 0.00000
0.45356 0.76223 0.00000
0.55965 0.75993 0.00000
0.66876 0.75759 0.00000
0.78051 0.75520 0.00000
0.06029 0.03929 0.09996
0.12888 0.03760 0.09796
0.21450 0.03550 0.09548
0.30796 0.03322 0.09278
0.40692 0.03081 0.08994
0.51016 0.02830 0.08698
0.61694 0.02573 0.08394
0.72675 0.02309 0.08083
0.83922 0.02039 0.07767
0.05620 0.10343 0.09327
0.12475 0.10176 0.09130
0.21031 0.09968 0.08884
0.30373 0.09741 0.08617
0.40263 0.09503 0.08336
0.50581 0.09255 0.08044
0.61253 0.09000 0.07744
0.72227 0.08738 0.07437
0.83468 0.08472 0.07124
0.05090 0.18357 0.08503
0.11941 0.18192 0.08308
0.20491 0.17987 0.08066
0.29826 0.17763 0.07803
0.39708 0.17528 0.07526
0.50019 0.17283 0.07239
0.60683 0.17031 0.06943
0.71650 0.16773 0.06640
0.82883 0.16510 0.06332
0.04488 0.27119 0.07616
0.11334 0.26956 0.07425
0.19877 0.26753 0.07187
0.29205 0.26533 0.06928
0.39080 0.26301 0.06655
0.49382 0.26059 0.06373
0.60038 0.25810 0.06081
0.70997 0.25556 0.05784
0.82221 0.25296 0.05481
0.03825 0.36408 0.06693
0.10664 0.36248 0.06505
0.19201 0.36048 0.06271
0.28521 0.35831 0.06017
0.38388 0.35602 0.05749
0.48682 0.35364 0.05471
0.59329 0.35119 0.05185
0.70279 0.34868 0.04893
0.81493 0.34612 0.04595
0.03103 0.46114 0.05747
0.09937 0.45956 0.05562
0.18466 0.45759 0.05332
0.27778 0.45545 0.05083
0.37636 0.45320 0.04820
0.47921 0.45086 0.04547
0.58559 0.44844 0.04267
0.69500 0.44598 0.03980
0.80705 0.44346 0.03687
0.02325 0.56169 0.04786
0.09152 0.56013 0.04605
0.17674 0.55820 0.04380
0.26977 0.55609 0.04135
0.36827 0.55387 0.03877
0.47103 0.55157 0.03610
0.57732 0.54919 0.03335
0.68662 0.54677 0.03053
0.79857 0.54429 0.02767
0.01491 0.66525 0.03817
0.08312 0.66372 0.03640
0.16826 0.66182 0.03419
0.26121 0.65975 0.03179
0.35962 0.65757 0.02927
0.46229 0.65530 0.02665
0.56847 0.65297 0.02396
0.67768 0.65058 0.02120
0.78952 0.64815 0.01840
0.00602 0.77150 0.02845
0.07417 0.77000 0.02671
0.15923 0.76813 0.02455
0.25209 0.76610 0.02221
0.35040 0.76395 0.01974
0.45297 0.76173 0.01717
0.55906 0.75944 0.01454
0.66816 0.75709 0.01184
0.77990 0.75470 0.00910
0.05978 0.03857 0.18624
0.12837 0.03689 0.18425
0.21398 0.03479 0.18177
0.30744 0.03251 0.17907
0.40638 0.03010 0.17623
0.50962 0.02760 0.17328
0.61639 0.02503 0.17025
0.72619 0.02239 0.16715
0.83865 0.01970 0.16398
0.05567 0.10272 0.17956
0.12422 0.10105 0.17759
0.20978 0.09897 0.17514
0.30318 0.09671 0.17248
0.40208 0.09433 0.16967
0.50525 0.09185 0.16675
0.61196 0.08930 0.16376
0.72170 0.08669 0.16069
0.83410 0.08403 0.15756
0.05035 0.18287 0.17133
0.11885 0.18122 0.16939
0.20435 0.17917 0.16697
0.29769 0.17694 0.16435
0.39651 0.17459 0.16158
0.49961 0.17214 0.15871
0.60625 0.16962 0.15576
0.71591 0.16705 0.15273
0.82823 0.16442 0.14965
0.04432 0.27050 0.16248
0.11276 0.26887 0.16057
0.19819 0.26685 0.15819
0.29146 0.26465 0.15561
0.39021 0.26232 0.15289
0.49322 0.25991 0.15006
0.59978 0.25743 0.14716
0.70935 0.25489 0.14418
0.82159 0.25229 0.14116
0.03765 0.36340 0.15326
0.10604 0.36180 0.15138
0.19140 0.35980 0.14905
0.28460 0.35763 0.14651
0.38326 0.35535 0.14384
0.48619 0.35297 0.14106
0.59266 0.35052 0.13821
0.70215 0.34802 0.13529
0.81428 0.34546 0.13231
0.03041 0.46047 0.14381
0.09874 0.45889 0.14197
0.18403 0.45693 0.13968
0.27714 0.45479 0.13719
0.37572 0.45254 0.13456
0.47856 0.45020 0.13184
0.58494 0.44779 0.12904
0.69433 0.44532 0.12617
0.80637 0.44281 0.12325
0.02260 0.56103 0.13422
0.09087 0.55947 0.13241
0.17609 0.55754 0.13016
0.26911 0.55544 0.12772
0.36760 0.55322 0.12515
0.47036 0.55092 0.12248
0.57664 0.54855 0.11973
0.68593 0.54613 0.11692
0.79787 0.54365 0.11407
0.01424 0.66460 0.12455
0.08245 0.66308 0.12278
0.16758 0.66118 0.12057
0.26052 0.65911 0.11818
0.35892 0.65693 0.11566
0.46158 0.65467 0.11305
0.56776 0.65234 0.11036
0.67696 0.64996 0.10761
0.78880 0.64753 0.10481
0.00532 0.77086 0.11484
0.07347 0.76936 0.11311
0.15852 0.76749 0.11095
0.25137 0.76547 0.10861
0.34968 0.76333 0.10614
0.45224 0.76110 0.10359
0.55832 0.75882 0.10096
0.66742 0.75647 0.09827
0.77915 0.75409 0.09553
0.05922 0.03779 0.28047
0.12781 0.03611 0.27847
0.21341 0.03401 0.27600
0.30686 0.03173 0.27331
0.40580 0.02933 0.27047
0.50902 0.02684 0.26753
0.61579 0.02426 0.26450
0.72558 0.02163 0.26140
0.83804 0.01895 0.25824
0.05510 0.10194 0.27380
0.12364 0.10028 0.27183
0.20919 0.09820 0.26938
0.30259 0.09595 0.26672
0.40147 0.09357 0.26392
0.50464 0.09110 0.26101
0.61134 0.08855 0.25801
0.72107 0.08594 0.25495
0.83346 0.08329 0.25183
0.04976 0.18211 0.26558
0.11825 0.18046 0.26364
0.20374 0.17841 0.26123
0.29707 0.17618 0.25861
0.39589 0.17383 0.25584
0.49898 0.17139 0.25298
0.60561 0.16888 0.25003
0.71526 0.16630 0.24701
0.82757 0.16368 0.24394
0.04369 0.26974 0.25674
0.11213 0.26812 0.25483
0.19756 0.26610 0.25246
0.29082 0.26390 0.24988
0.38955 0.26158 0.24716
0.49257 0.25917 0.24434
0.59911 0.25669 0.24144
0.70868 0.25415 0.23847
0.82090 0.25157 0.23545
0.03701 0.36266 0.24754
0.10539 0.36106 0.24566
0.19074 0.35906 0.24333
0.28393 0.35690 0.24080
0.38258 0.35461 0.23813
0.48551 0.35224 0.23536
0.59196 0.34980 0.23251
0.70144 0.34730 0.22959
0.81357 0.34475 0.22662
0.02973 0.45974 0.23810
0.09806 0.45816 0.23626
0.18334 0.45620 0.23398
0.27644 0.45407 0.23149
0.37501 0.45182 0.22887
0.47785 0.44948 0.22615
0.58422 0.44708 0.22335
0.69360 0.44461 0.22049
0.80563 0.44210 0.21758
0.02190 0.56031 0.22853
0.09016 0.55875 0.22672
0.17537 0.55682 0.22448
0.26839 0.55473 0.22204
0.36687 0.55251 0.21947
0.46962 0.55022 0.21681
0.57589 0.54785 0.21407
0.68517 0.54543 0.21126
0.79711 0.54296 0.20841
0.01351 0.66389 0.21887
0.08171 0.66237 0.21710
0.16684 0.66047 0.21491
0.25977 0.65841 0.21252
0.35816 0.65623 0.21000
0.46081 0.65398 0.20739
0.56699 0.65165 0.20471
0.67617 0.64927 0.20196
0.78800 0.64684 0.19917
0.00456 0.77017 0.20918
0.07270 0.76867 0.20745
0.15774 0.76680 0.20530
0.25059 0.76478 0.20296
0.34889 0.76264 0.20050
0.45145 0.76042 0.19795
0.55752 0.75814 0.19532
0.66660 0.75580 0.19264
0.77833 0.75342 0.18991
0.05863 0.03696 0.38024
0.12721 0.03528 0.37826
0.21280 0.03319 0.37579
0.30625 0.03092 0.37310
0.40518 0.02852 0.37027
0.50839 0.02603 0.36733
0.61515 0.02346 0.36430
0.72493 0.02083 0.36121
0.83738 0.01815 0.35806
0.05448 0.10113 0.37359
0.12302 0.09946 0.37162
0.20856 0.09739 0.36918
0.30196 0.09514 0.36652
0.40083 0.09276 0.36373
0.50399 0.09029 0.36082
0.61068 0.08775 0.35783
0.72040 0.08515 0.35477
0.83279 0.08249 0.35166
0.04912 0.18130 0.36538
0.11761 0.17966 0.36345
0.20309 0.17761 0.36104
0.29642 0.17539 0.35842
0.39522 0.17304 0.35567
0.49830 0.17060 0.35280
0.60492 0.16809 0.34986
0.71457 0.16552 0.34685
0.82687 0.16290 0.34378
0.04303 0.26895 0.35656
0.11147 0.26732 0.35466
0.19688 0.26531 0.35229
0.29014 0.26311 0.34971
0.38886 0.26080 0.34700
0.49187 0.25839 0.34419
0.59840 0.25592 0.34129
0.70796 0.25338 0.33833
0.82017 0.25080 0.33531
0.03631 0.36187 0.34737
0.10469 0.36027 0.34550
0.19004 0.35828 0.34317
0.28322 0.35612 0.34065
0.38186 0.35384 0.33798
0.48478 0.35147 0.33522
0.59123 0.34903 0.33237
0.70070 0.34653 0.32946
0.81282 0.34399 0.32650
0.02902 0.45896 0.33796
0.09734 0.45739 0.33612
0.18261 0.45543 0.33384
0.27571 0.45330 0.33135
0.37427 0.45106 0.32874
0.47710 0.44872 0.32602
0.58345 0.44632 0.32323
0.69283 0.44386 0.32038
0.80485 0.44136 0.31747
0.02115 0.55954 0.32840
0.08941 0.55800 0.32660
0.17461 0.55607 0.32436
0.26762 0.55397 0.32192
0.36609 0.55176 0.31936
0.46883 0.54947 0.31670
0.57509 0.54711 0.31396
0.68437 0.54469 0.31117
0.79629 0.54223 0.30832
0.01273 0.66315 0.31876
0.08092 0.66162 0.31700
0.16604 0.65973 0.31480
0.25897 0.65767 0.31242
0.35735 0.65550 0.30991
0.46000 0.65324 0.30730
0.56616 0.65092 0.30462
0.67534 0.64854 0.30188
0.78716 0.64612 0.29910
0.00375 0.76943 0.30909
0.07188 0.76794 0.30736
0.15692 0.76607 0.30522
0.24976 0.76405 0.30288
0.34805 0.76192 0.30043
0.45060 0.75970 0.29788
0.55666 0.75742 0.29526
0.66573 0.75509 0.29258
0.77745 0.75271 0.28985
0.05801 0.03610 0.48437
0.12658 0.03443 0.48239
0.21216 0.03234 0.47992
0.30560 0.03007 0.47724
0.40452 0.02767 0.47441
0.50773 0.02518 0.47148
0.61448 0.02262 0.46846
0.72425 0.01999 0.46537
0.83669 0.01732 0.46222
0.05384 0.10027 0.47773
0.12237 0.09861 0.47576
0.20791 0.09654 0.47333
0.30129 0.09430 0.47068
0.40016 0.09192 0.46788
0.50331 0.08946 0.46498
0.60999 0.08692 0.46200
0.71970 0.08432 0.45895
0.83208 0.08167 0.45584
0.04845 0.18046 0.46954
0.11694 0.17882 0.46760
0.20241 0.17677 0.46520
0.29573 0.17455 0.46259
0.39452 0.17221 0.45984
0.49760 0.16978 0.45698
0.60421 0.16727 0.45404
0.71384 0.16470 0.45103
0.82613 0.16208 0.44797
0.04234 0.26812 0.46073
0.11076 0.26650 0.45883
0.19617 0.26448 0.45646
0.28942 0.26229 0.45389
0.38814 0.25998 0.45119
0.49113 0.25758 0.44838
0.59766 0.25511 0.44549
0.70721 0.25257 0.44253
0.81941 0.24999 0.43952
0.03559 0.36105 0.45156
0.10396 0.35946 0.44969
0.18930 0.35747 0.44737
0.28247 0.35531 0.44484
0.38111 0.35303 0.44218
0.48402 0.35067 0.43942
0.59046 0.34823 0.43658
0.69992 0.34574 0.43368
0.81203 0.34320 0.43072
0.02826 0.45816 0.44216
0.09658 0.45659 0.44033
0.18184 0.45463 0.43805
0.27493 0.45251 0.43557
0.37348 0.45026 0.43296
0.47630 0.44793 0.43025
0.58265 0.44554 0.42746
0.69202 0.44308 0.42462
0.80403 0.44058 0.42172
0.02037 0.55875 0.43262
0.08862 0.55721 0.43082
0.17381 0.55528 0.42859
0.26681 0.55319 0.42616
0.36528 0.55098 0.42360
0.46801 0.54869 0.42094
0.57426 0.54633 0.41821
0.68353 0.54392 0.41542
0.79544 0.54146 0.41258
0.01191 0.66237 0.42300
0.08010 0.66085 0.42124
0.16521 0.65896 0.41905
0.25813 0.65690 0.41667
0.35651 0.65473 0.41416
0.45914 0.65248 0.41156
0.56530 0.65016 0.40889
0.67446 0.64779 0.40616
0.78628 0.64537 0.40338
0.00290 0.76867 0.41335
0.07102 0.76717 0.41163
0.15606 0.76531 0.40948
0.24889 0.76329 0.40715
0.34717 0.76116 0.40470
0.44971 0.75895 0.40216
0.55576 0.75668 0.39954
0.66483 0.75435 0.39687
0.77653 0.75197 0.39415
0.05736 0.03522 0.59210
0.12593 0.03354 0.59012
0.21150 0.03145 0.58766
0.30493 0.02919 0.58498
0.40385 0.02679 0.58216
0.50704 0.02431 0.57923
0.61378 0.02175 0.57622
0.72355 0.01913 0.57313
0.83597 0.01646 0.56999
0.05317 0.09939 0.58547
0.12170 0.09773 0.58351
0.20723 0.09567 0.58107
0.30060 0.09342 0.57843
0.39946 0.09106 0.57564
0.50260 0.08859 0.57275
0.60927 0.08606 0.56977
0.71898 0.08346 0.56672
0.83134 0.08082 0.56362
0.04776 0.17959 0.57729
0.11624 0.17795 0.57536
0.20170 0.17591 0.57296
0.29501 0.17369 0.57036
0.39380 0.17135 0.56761
0.49686 0.16892 0.56476
0.60346 0.16642 0.56182
0.71309 0.16386 0.55882
0.82537 0.16124 0.55577
0.04161 0.26726 0.56850
0.11004 0.26564 0.56660
0.19544 0.26363 0.56424
0.28868 0.26144 0.56168
0.38739 0.25913 0.55898
0.49037 0.25674 0.55617
0.59689 0.25427 0.55329
0.70643 0.25174 0.55034
0.81862 0.24917 0.54733
0.03484 0.36021 0.55935
0.10321 0.35861 0.55748
0.18854 0.35663 0.55517
0.28170 0.35448 0.55265
0.38033 0.35220 0.54999
0.48323 0.34984 0.54724
0.58966 0.34741 0.54440
0.69911 0.34492 0.54150
0.81121 0.34238 0.53855
0.02748 0.45733 0.54997
0.09579 0.45576 0.54814
0.18105 0.45381 0.54586
0.27413 0.45168 0.54339
0.37267 0.44944 0.54078
0.47548 0.44712 0.53808
0.58182 0.44472 0.53530
0.69117 0.44227 0.53246
0.80318 0.43978 0.52956
0.01955 0.55793 0.54045
0.08780 0.55639 0.53865
0.17298 0.55447 0.53642
0.26598 0.55238 0.53400
0.36443 0.55018 0.53144
0.46715 0.54789 0.52879
0.57339 0.54554 0.52607
0.68265 0.54313 0.52328
0.79456 0.54067 0.52045
0.01106 0.66156 0.53085
0.07925 0.66004 0.52909
0.16435 0.65816 0.52690
0.25726 0.65610 0.52453
0.35563 0.65394 0.52203
0.45825 0.65169 0.51943
0.56440 0.64938 0.51677
0.67356 0.64701 0.51404
0.78536 0.64460 0.51126
0.00202 0.76787 0.52122
0.07014 0.76638 0.51950
0.15516 0.76453 0.51736
0.24798 0.76251 0.51503
0.34626 0.76039 0.51259
0.44879 0.75818 0.51005
0.55483 0.75591 0.50744
0.66389 0.75358 0.50477
0.77558 0.75121 0.50206
0.05669 0.03430 0.70292
0.12525 0.03263 0.70094
0.21082 0.03055 0.69848
0.30424 0.02828 0.69581
0.40315 0.02590 0.69300
0.50633 0.02341 0.69007
0.61306 0.02086 0.68707
0.72282 0.01824 0.68399
0.83523 0.01557 0.68085
0.05248 0.09849 0.69630
0.12100 0.09683 0.69434
0.20652 0.09477 0.69191
0.29989 0.09253 0.68927
0.39874 0.09016 0.68649
0.50187 0.08771 0.68360
0.60853 0.08518 0.68063
0.71823 0.08259 0.67759
0.83058 0.07994 0.67449
0.04704 0.17870 0.68814
0.11551 0.17706 0.68621
0.20097 0.17502 0.68382
0.29427 0.17281 0.68122
0.39305 0.17047 0.67848
0.49611 0.16805 0.67563
0.60270 0.16555 0.67270
0.71231 0.16299 0.66971
0.82458 0.16038 0.66666
0.04087 0.26638 0.67937
0.10929 0.26476 0.67747
0.19468 0.26275 0.67512
0.28791 0.26057 0.67256
0.38661 0.25827 0.66986
0.48958 0.25587 0.66706
0.59609 0.25341 0.66418
0.70562 0.25089 0.66124
0.81780 0.24831 0.65824
0.03406 0.35934 0.67023
0.10242 0.35775 0.66837
0.18775 0.35577 0.66606
0.28090 0.35362 0.66354
0.37952 0.35135 0.66089
0.48241 0.34899 0.65814
0.58883 0.34656 0.65531
0.69827 0.34408 0.65242
0.81036 0.34154 0.64948
0.02667 0.45647 0.66087
0.09497 0.45491 0.65904
0.18022 0.45296 0.65677
0.27329 0.45084 0.65430
0.37183 0.44860 0.65170
0.47463 0.44628 0.64901
0.58096 0.44389 0.64623
0.69030 0.44145 0.64339
0.80230 0.43895 0.64051
0.01871 0.55709 0.65137
0.08695 0.55555 0.64958
0.17212 0.55363 0.64735
0.26511 0.55155 0.64493
0.36356 0.54935 0.64238
0.46627 0.54707 0.63974
0.57250 0.54472 0.63702
0.68175 0.54231 0.63424
0.79364 0.53986 0.63141
0.01019 0.66073 0.64179
0.07837 0.65922 0.64003
0.16346 0.65733 0.63785
0.25636 0.65529 0.63548
0.35472 0.65312 0.63299
0.45734 0.65088 0.63040
0.56347 0.64857 0.62773
0.67262 0.64621 0.62501
0.78441 0.64380 0.62224
0.00111 0.76706 0.63218
0.06922 0.76557 0.63046
0.15424 0.76372 0.62833
0.24705 0.76171 0.62601
0.34532 0.75959 0.62357
0.44783 0.75738 0.62103
0.55387 0.75511 0.61843
0.66291 0.75279 0.61577
0.77460 0.75043 0.61306
0.05600 0.03337 0.81645
0.12455 0.03170 0.81448
0.21012 0.02962 0.81203
0.30353 0.02736 0.80936
0.40242 0.02498 0.80655
0.50560 0.02250 0.80363
0.61232 0.01995 0.80063
0.72206 0.01733 0.79756
0.83447 0.01467 0.79443
0.05177 0.09757 0.80985
0.12028 0.09591 0.80790
0.20580 0.09385 0.80547
0.29916 0.09161 0.80283
0.39799 0.08925 0.80006
0.50111 0.08680 0.79717
0.60777 0.08427 0.79421
0.71745 0.08169 0.79117
0.82979 0.07905 0.78808
0.04630 0.17778 0.80170
0.11477 0.17615 0.79978
0.20022 0.17412 0.79739
0.29351 0.17191 0.79479
0.39228 0.16957 0.79206
0.49533 0.16715 0.78922
0.60191 0.16466 0.78630
0.71151 0.16210 0.78331
0.82377 0.15950 0.78026
0.04010 0.26548 0.79295
0.10851 0.26387 0.79106
0.19390 0.26186 0.78871
0.28712 0.25968 0.78615
0.38581 0.25738 0.78346
0.48877 0.25499 0.78067
0.59527 0.25253 0.77779
0.70479 0.25001 0.77485
0.81696 0.24744 0.77186
0.03326 0.35845 0.78383
0.10162 0.35686 0.78197
0.18693 0.35489 0.77966
0.28008 0.35274 0.77715
0.37869 0.35047 0.77451
0.48157 0.34812 0.77177
0.58798 0.34569 0.76894
0.69741 0.34321 0.76606
0.80949 0.34068 0.76312
0.02584 0.45560 0.77449
0.09413 0.45403 0.77266
0.17938 0.45209 0.77040
0.27244 0.44997 0.76794
0.37096 0.44774 0.76534
0.47376 0.44542 0.76265
0.58007 0.44304 0.75988
0.68941 0.44060 0.75705
0.80139 0.43811 0.75417
0.01784 0.55623 0.76501
0.08608 0.55469 0.76322
0.17124 0.55278 0.76100
0.26422 0.55070 0.75858
0.36266 0.54850 0.75604
0.46536 0.54622 0.75340
0.57158 0.54388 0.75069
0.68082 0.54148 0.74791
0.79270 0.53903 0.74509
0.00929 0.65989 0.75545
0.07746 0.65838 0.75369
0.16255 0.65650 0.75152
0.25544 0.65445 0.74915
0.35379 0.65229 0.74666
0.45639 0.65005 0.74408
0.56252 0.64775 0.74142
0.67166 0.64539 0.73871
0.78344 0.64298 0.73595
0.00017 0.76623 0.74586
0.06828 0.76475 0.74414
0.15328 0.76290 0.74201
0.24609 0.76089 0.73970
0.34435 0.75877 0.73726
0.44686 0.75657 0.73474
0.55288 0.75431 0.73214
0.66191 0.75199 0.72948
0.77359 0.74963 0.72678
