Sources/PalmierPro/Resources/DomainPacks/LUTs/malay_wedding_lut1.cube
TITLE "malay_wedding_lut1"
LUT_3D_SIZE 9
0.12604 0.07776 0.05511
0.23081 0.07633 0.05273
0.33300 0.07494 0.05044
0.43420 0.07356 0.04820
0.53476 0.07219 0.04601
0.63485 0.07083 0.04386
0.73454 0.06947 0.04174
0.83391 0.06812 0.03966
0.93300 0.06677 0.03762
0.12166 0.17900 0.04724
0.22632 0.17758 0.04497
0.32840 0.17619 0.04279
0.42949 0.17481 0.04066
0.52995 0.17345 0.03857
0.62992 0.17208 0.03652
0.72951 0.17073 0.03451
0.82878 0.16938 0.03254
0.92776 0.16803 0.03060
0.11702 0.27777 0.03992
0.22158 0.27635 0.03775
0.32355 0.27496 0.03568
0.42454 0.27359 0.03365
0.52489 0.27222 0.03167
0.62476 0.27086 0.02972
0.72425 0.26951 0.02781
0.82341 0.26816 0.02594
0.92228 0.26681 0.02410
0.11208 0.37564 0.03301
0.21653 0.37421 0.03096
0.31839 0.37283 0.02898
0.41928 0.37145 0.02706
0.51953 0.37009 0.02518
0.61929 0.36873 0.02333
0.71868 0.36738 0.02153
0.81773 0.36603 0.01975
0.91651 0.36469 0.01801
0.10682 0.47291 0.02649
0.21116 0.47149 0.02454
0.31292 0.47011 0.02267
0.41370 0.46874 0.02085
0.51385 0.46737 0.01907
0.61351 0.46602 0.01732
0.71279 0.46467 0.01562
0.81175 0.46332 0.01394
0.91042 0.46198 0.01231
0.10123 0.56976 0.02033
0.20547 0.56834 0.01849
0.30712 0.56696 0.01672
0.40780 0.56559 0.01500
0.50785 0.56422 0.01332
0.60741 0.56287 0.01168
0.70659 0.56152 0.01007
0.80544 0.56018 0.00850
0.90402 0.55883 0.00696
0.09533 0.66626 0.01454
0.19946 0.66485 0.01280
0.30101 0.66346 0.01113
0.40159 0.66210 0.00951
0.50153 0.66074 0.00794
0.60099 0.65938 0.00639
0.70007 0.65804 0.00489
0.79882 0.65669 0.00341
0.89729 0.65535 0.00197
0.08911 0.76249 0.00909
0.19313 0.76107 0.00746
0.29458 0.75969 0.00590
0.39505 0.75832 0.00438
0.49489 0.75697 0.00290
0.59425 0.75561 0.00146
0.69323 0.75427 0.00005
0.79188 0.75293 0.00000
0.89025 0.75159 0.00000
0.08256 0.85847 0.00400
0.18648 0.85706 0.00247
0.28782 0.85568 0.00100
0.38819 0.85431 0.00000
0.48793 0.85296 0.00000
0.58719 0.85161 0.00000
0.68607 0.85026 0.00000
0.78462 0.84892 0.00000
0.88289 0.84758 0.00000
0.12561 0.07727 0.16034
0.23038 0.07585 0.15797
0.33255 0.07446 0.15569
0.43374 0.07308 0.15347
0.53430 0.07171 0.15129
0.63437 0.07035 0.14914
0.73405 0.06899 0.14704
0.83341 0.06764 0.14497
0.93248 0.06629 0.14293
0.12119 0.17852 0.15250
0.22585 0.17709 0.15025
0.32791 0.17571 0.14808
0.42900 0.17433 0.14596
0.52944 0.17296 0.14388
0.62941 0.17160 0.14184
0.72899 0.17025 0.13984
0.82824 0.16889 0.13788
0.92721 0.16755 0.13595
0.11652 0.27729 0.14522
0.22107 0.27587 0.14307
0.32302 0.27448 0.14101
0.42400 0.27311 0.13899
0.52435 0.27174 0.13702
0.62421 0.27038 0.13508
0.72368 0.26903 0.13318
0.82283 0.26768 0.13132
0.92170 0.26633 0.12949
0.11154 0.37515 0.13835
0.21598 0.37373 0.13631
0.31783 0.37234 0.13435
0.41871 0.37097 0.13243
0.51894 0.36961 0.13056
0.61870 0.36825 0.12873
0.71807 0.36690 0.12693
0.81712 0.36555 0.12517
0.91588 0.36420 0.12344
0.10624 0.47243 0.13186
0.21058 0.47101 0.12993
0.31232 0.46963 0.12807
0.41309 0.46825 0.12626
0.51323 0.46689 0.12449
0.61288 0.46553 0.12275
0.71215 0.46418 0.12106
0.81110 0.46284 0.11940
0.90976 0.46149 0.11777
0.10062 0.56928 0.12575
0.20485 0.56786 0.12391
0.30649 0.56647 0.12216
0.40716 0.56510 0.12045
0.50719 0.56374 0.11878
0.60675 0.56239 0.11715
0.70592 0.56104 0.11555
0.80476 0.55969 0.11399
0.90332 0.55835 0.11246
0.09469 0.66578 0.11999
0.19881 0.66437 0.11826
0.30034 0.66298 0.11660
0.40091 0.66162 0.11500
0.50084 0.66026 0.11343
0.60029 0.65890 0.11190
0.69936 0.65755 0.11040
0.79810 0.65621 0.10894
0.89656 0.65487 0.10751
0.08842 0.76201 0.11458
0.19244 0.76059 0.11295
0.29387 0.75921 0.11140
0.39434 0.75784 0.10989
0.49417 0.75649 0.10843
0.59352 0.75513 0.10699
0.69248 0.75379 0.10560
0.79112 0.75245 0.10423
0.88948 0.75111 0.10290
0.08184 0.85799 0.10951
0.18575 0.85658 0.10800
0.28708 0.85520 0.10654
0.38744 0.85383 0.10514
0.48717 0.85248 0.10377
0.58642 0.85113 0.10244
0.68528 0.84978 0.10114
0.78383 0.84844 0.09988
0.88209 0.84711 0.09864
0.12519 0.07680 0.26299
0.22995 0.07538 0.26064
0.33211 0.07398 0.25837
0.43329 0.07261 0.25616
0.53383 0.07124 0.25398
0.63390 0.06988 0.25185
0.73357 0.06852 0.24976
0.83292 0.06717 0.24770
0.93198 0.06582 0.24568
0.12074 0.17805 0.25520
0.22538 0.17662 0.25295
0.32743 0.17523 0.25079
0.42851 0.17386 0.24868
0.52894 0.17249 0.24662
0.62890 0.17113 0.24459
0.72847 0.16977 0.24260
0.82771 0.16842 0.24065
0.92667 0.16708 0.23873
0.11603 0.27682 0.24795
0.22057 0.27540 0.24581
0.32251 0.27401 0.24376
0.42348 0.27263 0.24175
0.52381 0.27127 0.23979
0.62366 0.26991 0.23786
0.72313 0.26856 0.23598
0.82226 0.26721 0.23412
0.92112 0.26586 0.23231
0.11101 0.37468 0.24112
0.21544 0.37326 0.23908
0.31728 0.37187 0.23713
0.41815 0.37050 0.23523
0.51837 0.36914 0.23337
0.61812 0.36778 0.23155
0.71748 0.36643 0.22976
0.81652 0.36508 0.22801
0.91527 0.36374 0.22629
0.10568 0.47196 0.23466
0.21000 0.47054 0.23274
0.31174 0.46915 0.23089
0.41250 0.46778 0.22909
0.51262 0.46642 0.22733
0.61227 0.46506 0.22561
0.71153 0.46371 0.22392
0.81046 0.46237 0.22227
0.90911 0.46103 0.22065
0.10003 0.56881 0.22858
0.20424 0.56739 0.22676
0.30587 0.56601 0.22501
0.40653 0.56464 0.22331
0.50655 0.56327 0.22166
0.60610 0.56192 0.22003
0.70525 0.56057 0.21845
0.80409 0.55923 0.21690
0.90264 0.55789 0.21538
0.09405 0.66531 0.22286
0.19816 0.66390 0.22114
0.29969 0.66251 0.21949
0.40024 0.66115 0.21790
0.50016 0.65979 0.21634
0.59961 0.65843 0.21482
0.69866 0.65709 0.21333
0.79739 0.65574 0.21188
0.89584 0.65440 0.21046
0.08776 0.76154 0.21748
0.19176 0.76012 0.21587
0.29318 0.75874 0.21433
0.39364 0.75738 0.21283
0.49345 0.75602 0.21137
0.59279 0.75467 0.20995
0.69175 0.75332 0.20856
0.79038 0.75198 0.20721
0.88873 0.75064 0.20589
0.08114 0.85752 0.21245
0.18504 0.85611 0.21094
0.28636 0.85473 0.20950
0.38671 0.85337 0.20811
0.48642 0.85201 0.20675
0.58566 0.85066 0.20543
0.68452 0.84931 0.20414
0.78305 0.84797 0.20289
0.88130 0.84664 0.20167
0.12477 0.07633 0.36470
0.22952 0.07491 0.36236
0.33167 0.07352 0.36010
0.43284 0.07214 0.35790
0.53337 0.07077 0.35574
0.63342 0.06941 0.35362
0.73309 0.06805 0.35153
0.83242 0.06670 0.34948
0.93148 0.06535 0.34747
0.12028 0.17758 0.35695
0.22492 0.17616 0.35471
0.32696 0.17477 0.35256
0.42802 0.17339 0.35046
0.52845 0.17202 0.34841
0.62839 0.17066 0.34639
0.72795 0.16931 0.34441
0.82718 0.16796 0.34247
0.92613 0.16661 0.34056
0.11554 0.27635 0.34973
0.22007 0.27493 0.34760
0.32200 0.27354 0.34556
0.42296 0.27217 0.34356
0.52328 0.27080 0.34161
0.62312 0.26944 0.33970
0.72257 0.26809 0.33782
0.82170 0.26674 0.33598
0.92055 0.26539 0.33417
0.11049 0.37421 0.34293
0.21491 0.37279 0.34091
0.31673 0.37141 0.33897
0.41759 0.37003 0.33708
0.51781 0.36867 0.33523
0.61754 0.36731 0.33341
0.71689 0.36596 0.33164
0.81592 0.36461 0.32990
0.91466 0.36327 0.32819
0.10512 0.47149 0.33652
0.20943 0.47007 0.33460
0.31115 0.46869 0.33276
0.41191 0.46732 0.33097
0.51202 0.46596 0.32922
0.61165 0.46460 0.32751
0.71090 0.46325 0.32583
0.80983 0.46190 0.32419
0.90847 0.46056 0.32259
0.09943 0.56834 0.33047
0.20364 0.56692 0.32866
0.30526 0.56554 0.32692
0.40590 0.56417 0.32523
0.50591 0.56281 0.32358
0.60545 0.56146 0.32197
0.70459 0.56011 0.32040
0.80342 0.55876 0.31885
0.90196 0.55742 0.31735
0.09342 0.66485 0.32478
0.19752 0.66343 0.32307
0.29904 0.66205 0.32144
0.39958 0.66068 0.31985
0.49949 0.65932 0.31830
0.59892 0.65797 0.31679
0.69797 0.65662 0.31531
0.79669 0.65528 0.31387
0.89513 0.65394 0.31246
0.08709 0.76107 0.31944
0.19108 0.75966 0.31783
0.29250 0.75828 0.31630
0.39294 0.75691 0.31482
0.49275 0.75555 0.31337
0.59208 0.75420 0.31196
0.69102 0.75286 0.31058
0.78964 0.75152 0.30924
0.88798 0.75018 0.30793
0.08044 0.85706 0.31444
0.18432 0.85565 0.31294
0.28563 0.85427 0.31151
0.38598 0.85290 0.31013
0.48568 0.85155 0.30878
0.58491 0.85020 0.30747
0.68375 0.84885 0.30619
0.78227 0.84751 0.30495
0.88051 0.84618 0.30374
0.12435 0.07587 0.46581
0.22909 0.07444 0.46347
0.33123 0.07305 0.46123
0.43239 0.07167 0.45903
0.53291 0.07031 0.45688
0.63295 0.06894 0.45477
0.73261 0.06759 0.45269
0.83193 0.06623 0.45066
0.93098 0.06489 0.44865
0.11983 0.17712 0.45808
0.22445 0.17569 0.45586
0.32648 0.17430 0.45372
0.42753 0.17293 0.45163
0.52795 0.17156 0.44959
0.62788 0.17020 0.44758
0.72743 0.16884 0.44561
0.82665 0.16749 0.44368
0.92559 0.16615 0.44178
0.11505 0.27589 0.45090
0.21956 0.27447 0.44879
0.32149 0.27308 0.44675
0.42244 0.27170 0.44477
0.52275 0.27034 0.44283
0.62258 0.26898 0.44092
0.72202 0.26763 0.43905
0.82114 0.26628 0.43722
0.91997 0.26493 0.43542
0.10996 0.37375 0.44414
0.21437 0.37233 0.44213
0.31619 0.37094 0.44020
0.41703 0.36957 0.43832
0.51724 0.36821 0.43647
0.61696 0.36685 0.43467
0.71630 0.36550 0.43291
0.81532 0.36415 0.43118
0.91405 0.36281 0.42948
0.10456 0.47103 0.43776
0.20886 0.46961 0.43585
0.31057 0.46823 0.43402
0.41131 0.46686 0.43224
0.51142 0.46549 0.43050
0.61104 0.46414 0.42880
0.71028 0.46279 0.42714
0.80919 0.46144 0.42551
0.90782 0.46010 0.42391
0.09883 0.56788 0.43174
0.20303 0.56646 0.42994
0.30464 0.56508 0.42822
0.40528 0.56371 0.42654
0.50528 0.56235 0.42490
0.60480 0.56099 0.42330
0.70394 0.55964 0.42173
0.80275 0.55830 0.42020
0.90128 0.55696 0.41870
0.09279 0.66439 0.42609
0.19688 0.66297 0.42439
0.29838 0.66159 0.42277
0.39892 0.66022 0.42119
0.49882 0.65886 0.41965
0.59824 0.65751 0.41815
0.69727 0.65616 0.41669
0.79598 0.65482 0.41525
0.89441 0.65348 0.41385
0.08643 0.76061 0.42078
0.19041 0.75920 0.41919
0.29181 0.75782 0.41767
0.39224 0.75645 0.41619
0.49204 0.75509 0.41475
0.59136 0.75374 0.41335
0.69029 0.75240 0.41199
0.78890 0.75105 0.41065
0.88723 0.74972 0.40935
0.07974 0.85660 0.41582
0.18361 0.85518 0.41433
0.28491 0.85381 0.41291
0.38524 0.85244 0.41154
0.48494 0.85109 0.41020
0.58416 0.84974 0.40890
0.68299 0.84839 0.40763
0.78150 0.84705 0.40640
0.87973 0.84572 0.40520
0.12393 0.07541 0.56646
0.22866 0.07398 0.56413
0.33079 0.07259 0.56190
0.43194 0.07121 0.55971
0.53245 0.06984 0.55757
0.63248 0.06848 0.55547
0.73212 0.06712 0.55341
0.83144 0.06577 0.55138
0.93047 0.06442 0.54939
0.11937 0.17665 0.55877
0.22398 0.17523 0.55656
0.32600 0.17384 0.55443
0.42705 0.17246 0.55235
0.52745 0.17110 0.55031
0.62737 0.16974 0.54832
0.72691 0.16838 0.54636
0.82612 0.16703 0.54443
0.92505 0.16568 0.54254
0.11456 0.27543 0.55163
0.21906 0.27400 0.54952
0.32097 0.27262 0.54750
0.42191 0.27124 0.54552
0.52221 0.26988 0.54359
0.62203 0.26852 0.54170
0.72146 0.26716 0.53984
0.82057 0.26582 0.53802
0.91940 0.26447 0.53623
0.10943 0.37329 0.54490
0.21383 0.37187 0.54290
0.31564 0.37048 0.54097
0.41647 0.36911 0.53910
0.51667 0.36775 0.53727
0.61638 0.36639 0.53548
0.71572 0.36504 0.53372
0.81472 0.36369 0.53200
0.91344 0.36235 0.53032
0.10400 0.47057 0.53855
0.20829 0.46915 0.53665
0.30999 0.46777 0.53484
0.41072 0.46639 0.53307
0.51081 0.46503 0.53134
0.61043 0.46368 0.52965
0.70965 0.46233 0.52799
0.80856 0.46098 0.52637
0.90718 0.45964 0.52478
0.09824 0.56742 0.53257
0.20242 0.56600 0.53078
0.30402 0.56462 0.52906
0.40465 0.56325 0.52739
0.50464 0.56189 0.52577
0.60415 0.56053 0.52418
0.70328 0.55918 0.52262
0.80208 0.55784 0.52110
0.90060 0.55650 0.51961
0.09216 0.66393 0.52694
0.19624 0.66251 0.52526
0.29773 0.66113 0.52365
0.39826 0.65976 0.52208
0.49814 0.65840 0.52055
0.59755 0.65705 0.51906
0.69658 0.65570 0.51761
0.79528 0.65436 0.51618
0.89370 0.65302 0.51480
0.08576 0.76015 0.52167
0.18973 0.75874 0.52009
0.29112 0.75736 0.51858
0.39154 0.75599 0.51711
0.49133 0.75463 0.51569
0.59064 0.75328 0.51430
0.68956 0.75194 0.51294
0.78816 0.75060 0.51162
0.88648 0.74926 0.51033
0.07904 0.85614 0.51675
0.18290 0.85473 0.51527
0.28419 0.85335 0.51386
0.38451 0.85198 0.51249
0.48420 0.85063 0.51117
0.58340 0.84928 0.50988
0.68223 0.84793 0.50862
0.78073 0.84659 0.50740
0.87895 0.84526 0.50621
0.12351 0.07494 0.66675
0.22823 0.07352 0.66444
0.33034 0.07213 0.66221
0.43148 0.07075 0.66004
0.53198 0.06938 0.65791
0.63200 0.06802 0.65582
0.73164 0.06666 0.65376
0.83094 0.06531 0.65175
0.92997 0.06396 0.64976
0.11891 0.17619 0.65910
0.22351 0.17477 0.65690
0.32552 0.17338 0.65478
0.42656 0.17200 0.65271
0.52695 0.17064 0.65069
0.62686 0.16928 0.64870
0.72639 0.16792 0.64675
0.82559 0.16657 0.64484
0.92451 0.16522 0.64296
0.11406 0.27497 0.65199
0.21856 0.27354 0.64990
0.32046 0.27216 0.64788
0.42139 0.27078 0.64592
0.52167 0.26942 0.64400
0.62148 0.26806 0.64211
0.72091 0.26670 0.64027
0.82000 0.26536 0.63845
0.91882 0.26401 0.63667
0.10890 0.37283 0.64530
0.21329 0.37141 0.64331
0.31509 0.37002 0.64140
0.41591 0.36865 0.63953
0.51610 0.36729 0.63771
0.61580 0.36593 0.63593
0.71512 0.36458 0.63419
0.81412 0.36323 0.63248
0.91283 0.36189 0.63080
0.10343 0.47011 0.63898
0.20771 0.46869 0.63710
0.30940 0.46731 0.63529
0.41012 0.46594 0.63353
0.51021 0.46457 0.63181
0.60981 0.46322 0.63013
0.70903 0.46187 0.62849
0.80792 0.46052 0.62688
0.90653 0.45918 0.62530
0.09764 0.56696 0.63304
0.20181 0.56554 0.63126
0.30340 0.56416 0.62955
0.40402 0.56279 0.62789
0.50400 0.56143 0.62628
0.60350 0.56008 0.62470
0.70262 0.55873 0.62315
0.80141 0.55738 0.62164
0.89992 0.55604 0.62016
0.09153 0.66347 0.62745
0.19559 0.66205 0.62577
0.29708 0.66067 0.62417
0.39759 0.65930 0.62261
0.49747 0.65794 0.62110
0.59687 0.65659 0.61962
0.69588 0.65524 0.61817
0.79457 0.65390 0.61676
0.89298 0.65256 0.61538
0.08509 0.75969 0.62221
0.18905 0.75828 0.62064
0.29043 0.75690 0.61914
0.39085 0.75553 0.61768
0.49062 0.75418 0.61626
0.58992 0.75283 0.61488
0.68883 0.75148 0.61354
0.78742 0.75014 0.61223
0.88573 0.74880 0.61095
0.07834 0.85568 0.61732
0.18219 0.85427 0.61585
0.28347 0.85289 0.61445
0.38378 0.85153 0.61310
0.48345 0.85017 0.61178
0.58265 0.84882 0.61050
0.68146 0.84748 0.60925
0.77995 0.84614 0.60804
0.87816 0.84480 0.60686
0.12309 0.07448 0.76675
0.22779 0.07306 0.76445
0.32990 0.07167 0.76224
0.43103 0.07029 0.76007
0.53152 0.06892 0.75795
0.63153 0.06756 0.75587
0.73115 0.06620 0.75383
0.83045 0.06485 0.75182
0.92946 0.06351 0.74984
0.11845 0.17573 0.75914
0.22304 0.17431 0.75694
0.32504 0.17292 0.75484
0.42606 0.17154 0.75278
0.52645 0.17018 0.75076
0.62635 0.16882 0.74879
0.72587 0.16746 0.74685
0.82506 0.16611 0.74494
0.92396 0.16477 0.74307
0.11357 0.27451 0.75206
0.21805 0.27308 0.74998
0.31994 0.27170 0.74797
0.42086 0.27032 0.74602
0.52114 0.26896 0.74411
0.62094 0.26760 0.74223
0.72035 0.26625 0.74040
0.81944 0.26490 0.73860
0.91824 0.26355 0.73683
0.10837 0.37237 0.74540
0.21275 0.37095 0.74342
0.31454 0.36956 0.74152
0.41535 0.36819 0.73967
0.51552 0.36683 0.73786
0.61522 0.36547 0.73609
0.71453 0.36412 0.73435
0.81352 0.36277 0.73265
0.91222 0.36143 0.73098
0.10287 0.46965 0.73912
0.20713 0.46823 0.73725
0.30882 0.46685 0.73545
0.40953 0.46548 0.73370
0.50960 0.46412 0.73199
0.60919 0.46276 0.73032
0.70840 0.46141 0.72869
0.80728 0.46007 0.72709
0.90588 0.45872 0.72552
0.09704 0.56650 0.73321
0.20120 0.56508 0.73144
0.30278 0.56370 0.72975
0.40339 0.56233 0.72810
0.50336 0.56097 0.72649
0.60285 0.55962 0.72492
0.70195 0.55827 0.72338
0.80073 0.55693 0.72188
0.89923 0.55559 0.72042
0.09089 0.66301 0.72765
0.19495 0.66159 0.72599
0.29642 0.66021 0.72440
0.39693 0.65885 0.72285
0.49679 0.65749 0.72134
0.59618 0.65614 0.71987
0.69519 0.65479 0.71844
0.79387 0.65345 0.71704
0.89227 0.65211 0.71567
0.08442 0.75924 0.72245
0.18837 0.75782 0.72089
0.28974 0.75644 0.71940
0.39015 0.75508 0.71795
0.48991 0.75372 0.71655
0.58920 0.75237 0.71518
0.68810 0.75103 0.71384
0.78668 0.74968 0.71254
0.88498 0.74835 0.71127
0.07763 0.85523 0.71759
0.18148 0.85381 0.71613
0.28275 0.85243 0.71475
0.38305 0.85107 0.71340
0.48271 0.84971 0.71209
0.58190 0.84837 0.71082
0.68070 0.84702 0.70959
0.77918 0.84568 0.70838
0.87738 0.84435 0.70721
0.12266 0.07402 0.86650
0.22735 0.07260 0.86421
0.32945 0.07121 0.86201
0.43057 0.06983 0.85985
0.53105 0.06846 0.85774
0.63105 0.06710 0.85567
0.73066 0.06575 0.85364
0.82995 0.06440 0.85164
0.92895 0.06305 0.84968
0.11799 0.17527 0.85892
0.22257 0.17385 0.85674
0.32456 0.17246 0.85464
0.42557 0.17109 0.85259
0.52594 0.16972 0.85059
0.62583 0.16836 0.84862
0.72534 0.16701 0.84669
0.82452 0.16566 0.84480
0.92342 0.16431 0.84294
0.11307 0.27405 0.85188
0.21754 0.27263 0.84981
0.31942 0.27124 0.84781
0.42033 0.26987 0.84587
0.52060 0.26850 0.84397
0.62039 0.26714 0.84211
0.71979 0.26579 0.84028
0.81887 0.26444 0.83849
0.91766 0.26310 0.83673
0.10784 0.37191 0.84525
0.21221 0.37049 0.84329
0.31398 0.36911 0.84140
0.41479 0.36774 0.83956
0.51495 0.36637 0.83776
0.61464 0.36502 0.83599
0.71394 0.36366 0.83427
0.81291 0.36232 0.83258
0.91160 0.36097 0.83092
0.10230 0.46919 0.83901
0.20656 0.46778 0.83715
0.30823 0.46639 0.83536
0.40893 0.46502 0.83362
0.50899 0.46366 0.83192
0.60857 0.46231 0.83026
0.70777 0.46096 0.82864
0.80664 0.45961 0.82704
0.90523 0.45827 0.82549
0.09644 0.56605 0.83313
0.20059 0.56463 0.83137
0.30216 0.56325 0.82969
0.40275 0.56188 0.82805
0.50271 0.56052 0.82645
0.60219 0.55916 0.82489
0.70129 0.55781 0.82337
0.80006 0.55647 0.82188
0.89855 0.55513 0.82042
0.09026 0.66255 0.82761
0.19430 0.66114 0.82596
0.29577 0.65976 0.82437
0.39626 0.65839 0.82284
0.49612 0.65703 0.82134
0.59550 0.65568 0.81988
0.69449 0.65433 0.81845
0.79316 0.65299 0.81706
0.89155 0.65165 0.81570
0.08375 0.75878 0.82244
0.18769 0.75737 0.82089
0.28905 0.75599 0.81941
0.38944 0.75462 0.81797
0.48920 0.75327 0.81658
0.58848 0.75192 0.81522
0.68737 0.75057 0.81389
0.78594 0.74923 0.81260
0.88423 0.74789 0.81134
0.07693 0.85477 0.81761
0.18076 0.85336 0.81617
0.28202 0.85198 0.81479
0.38231 0.85062 0.81345
0.48196 0.84926 0.81216
0.58114 0.84791 0.81090
0.67993 0.84657 0.80967
0.77840 0.84523 0.80848
0.87659 0.84389 0.80732
