Sources/PalmierPro/Resources/DomainPacks/LUTs/malay_wedding_lut2.cube
TITLE "malay_wedding_lut2"
LUT_3D_SIZE 33
0.06070 0.03986 0.03084
0.07427 0.03953 0.03045
0.09121 0.03911 0.02995
0.10971 0.03865 0.02941
0.12929 0.03817 0.02884
0.14973 0.03767 0.02825
0.17088 0.03715 0.02764
0.19263 0.03662 0.02700
0.21491 0.03607 0.02636
0.23767 0.03551 0.02570
0.26086 0.03495 0.02503
0.28444 0.03437 0.02435
0.30838 0.03378 0.02366
0.33267 0.03319 0.02296
0.35727 0.03259 0.02225
0.38217 0.03199 0.02153
0.40734 0.03137 0.02081
0.43279 0.03075 0.02008
0.45848 0.03013 0.01934
0.48442 0.02950 0.01860
0.51059 0.02887 0.01785
0.53698 0.02823 0.01710
0.56357 0.02759 0.01634
0.59038 0.02694 0.01558
0.61737 0.02629 0.01481
0.64456 0.02563 0.01404
0.67193 0.02497 0.01326
0.69948 0.02431 0.01248
0.72719 0.02364 0.01169
0.75508 0.02298 0.01091
0.78312 0.02230 0.01012
0.81132 0.02163 0.00932
0.83967 0.02095 0.00852
0.05990 0.05254 0.02951
0.07347 0.05221 0.02912
0.09041 0.05179 0.02862
0.10890 0.05134 0.02809
0.12849 0.05086 0.02752
0.14893 0.05036 0.02692
0.17007 0.04984 0.02631
0.19182 0.04931 0.02568
0.21410 0.04876 0.02504
0.23685 0.04820 0.02438
0.26004 0.04764 0.02371
0.28362 0.04706 0.02303
0.30756 0.04648 0.02234
0.33184 0.04589 0.02164
0.35644 0.04529 0.02094
0.38133 0.04468 0.02022
0.40651 0.04407 0.01950
0.43195 0.04345 0.01877
0.45764 0.04283 0.01804
0.48358 0.04220 0.01730
0.50974 0.04157 0.01655
0.53613 0.04093 0.01580
0.56272 0.04029 0.01504
0.58952 0.03965 0.01428
0.61651 0.03900 0.01351
0.64370 0.03834 0.01274
0.67106 0.03768 0.01197
0.69861 0.03702 0.01119
0.72632 0.03636 0.01041
0.75420 0.03569 0.00962
0.78224 0.03502 0.00883
0.81044 0.03435 0.00804
0.83879 0.03367 0.00724
0.05890 0.06838 0.02785
0.07247 0.06805 0.02746
0.08940 0.06763 0.02697
0.10789 0.06718 0.02643
0.12748 0.06670 0.02587
0.14791 0.06620 0.02527
0.16905 0.06568 0.02466
0.19080 0.06515 0.02404
0.21307 0.06460 0.02339
0.23582 0.06405 0.02274
0.25901 0.06348 0.02207
0.28258 0.06291 0.02139
0.30652 0.06233 0.02070
0.33080 0.06174 0.02001
0.35539 0.06114 0.01930
0.38029 0.06054 0.01859
0.40546 0.05993 0.01787
0.43089 0.05931 0.01714
0.45658 0.05869 0.01641
0.48252 0.05806 0.01567
0.50868 0.05743 0.01493
0.53506 0.05680 0.01418
0.56165 0.05616 0.01343
0.58844 0.05551 0.01267
0.61543 0.05486 0.01190
0.64261 0.05421 0.01113
0.66998 0.05355 0.01036
0.69752 0.05290 0.00959
0.72522 0.05223 0.00881
0.75310 0.05157 0.00802
0.78114 0.05090 0.00723
0.80933 0.05023 0.00644
0.83767 0.04955 0.00565
0.05779 0.08567 0.02605
0.07136 0.08534 0.02566
0.08829 0.08493 0.02517
0.10678 0.08448 0.02463
0.12636 0.08400 0.02407
0.14679 0.08350 0.02348
0.16793 0.08298 0.02287
0.18967 0.08245 0.02224
0.21195 0.08191 0.02160
0.23469 0.08136 0.02095
0.25787 0.08079 0.02028
0.28144 0.08022 0.01961
0.30538 0.07964 0.01892
0.32965 0.07905 0.01823
0.35425 0.07846 0.01753
0.37913 0.07785 0.01681
0.40430 0.07725 0.01610
0.42973 0.07663 0.01537
0.45542 0.07601 0.01464
0.48135 0.07539 0.01391
0.50750 0.07476 0.01317
0.53388 0.07412 0.01242
0.56047 0.07348 0.01167
0.58726 0.07284 0.01091
0.61425 0.07219 0.01015
0.64142 0.07154 0.00938
0.66878 0.07089 0.00861
0.69631 0.07023 0.00784
0.72402 0.06957 0.00706
0.75189 0.06891 0.00628
0.77992 0.06824 0.00550
0.80811 0.06757 0.00471
0.83645 0.06690 0.00392
0.05662 0.10399 0.02415
0.07018 0.10366 0.02375
0.08711 0.10325 0.02327
0.10560 0.10280 0.02273
0.12517 0.10232 0.02217
0.14560 0.10182 0.02158
0.16673 0.10131 0.02097
0.18847 0.10078 0.02035
0.21074 0.10024 0.01971
0.23349 0.09969 0.01906
0.25666 0.09913 0.01840
0.28023 0.09856 0.01772
0.30416 0.09798 0.01704
0.32843 0.09739 0.01635
0.35302 0.09680 0.01565
0.37790 0.09620 0.01494
0.40307 0.09559 0.01423
0.42849 0.09498 0.01350
0.45418 0.09436 0.01278
0.48010 0.09374 0.01204
0.50625 0.09311 0.01130
0.53262 0.09248 0.01056
0.55921 0.09184 0.00981
0.58599 0.09120 0.00905
0.61298 0.09055 0.00830
0.64015 0.08990 0.00753
0.66750 0.08925 0.00677
0.69503 0.08860 0.00599
0.72273 0.08794 0.00522
0.75060 0.08727 0.00444
0.77863 0.08661 0.00366
0.80681 0.08594 0.00287
0.83515 0.08527 0.00209
0.05537 0.12312 0.02216
0.06893 0.12279 0.02177
0.08586 0.12237 0.02129
0.10435 0.12193 0.02076
0.12392 0.12145 0.02020
0.14434 0.12095 0.01961
0.16547 0.12044 0.01900
0.18721 0.11991 0.01838
0.20947 0.11937 0.01775
0.23221 0.11882 0.01710
0.25539 0.11826 0.01644
0.27895 0.11769 0.01577
0.30288 0.11712 0.01508
0.32714 0.11653 0.01439
0.35173 0.11594 0.01370
0.37661 0.11534 0.01299
0.40176 0.11474 0.01228
0.42719 0.11413 0.01156
0.45287 0.11351 0.01083
0.47879 0.11289 0.01010
0.50493 0.11226 0.00937
0.53130 0.11163 0.00862
0.55788 0.11100 0.00788
0.58466 0.11036 0.00713
0.61164 0.10971 0.00637
0.63881 0.10907 0.00561
0.66616 0.10842 0.00485
0.69368 0.10776 0.00408
0.72138 0.10711 0.00330
0.74924 0.10645 0.00253
0.77726 0.10578 0.00175
0.80544 0.10512 0.00097
0.83377 0.10445 0.00018
0.05408 0.14291 0.02012
0.06764 0.14258 0.01973
0.08456 0.14217 0.01925
0.10304 0.14172 0.01872
0.12261 0.14124 0.01816
0.14303 0.14075 0.01758
0.16416 0.14024 0.01697
0.18589 0.13971 0.01635
0.20815 0.13917 0.01572
0.23089 0.13863 0.01507
0.25405 0.13807 0.01441
0.27761 0.13750 0.01375
0.30154 0.13692 0.01307
0.32580 0.13634 0.01238
0.35038 0.13575 0.01169
0.37525 0.13515 0.01098
0.40041 0.13455 0.01027
0.42583 0.13394 0.00956
0.45150 0.13333 0.00883
0.47741 0.13271 0.00810
0.50356 0.13208 0.00737
0.52992 0.13146 0.00663
0.55650 0.13082 0.00589
0.58327 0.13019 0.00514
0.61025 0.12954 0.00438
0.63741 0.12890 0.00363
0.66475 0.12825 0.00287
0.69227 0.12760 0.00210
0.71996 0.12694 0.00133
0.74782 0.12628 0.00056
0.77584 0.12562 0.00000
0.80401 0.12496 0.00000
0.83234 0.12429 0.00000
0.05273 0.16327 0.01803
0.06629 0.16294 0.01764
0.08321 0.16253 0.01716
0.10169 0.16208 0.01663
0.12125 0.16161 0.01607
0.14167 0.16112 0.01549
0.16279 0.16061 0.01489
0.18452 0.16008 0.01427
0.20678 0.15955 0.01364
0.22951 0.15900 0.01300
0.25267 0.15844 0.01234
0.27623 0.15788 0.01168
0.30015 0.15730 0.01100
0.32440 0.15672 0.01032
0.34898 0.15613 0.00962
0.37385 0.15554 0.00892
0.39900 0.15494 0.00822
0.42441 0.15433 0.00750
0.45008 0.15372 0.00678
0.47599 0.15310 0.00606
0.50213 0.15248 0.00533
0.52849 0.15185 0.00459
0.55506 0.15122 0.00385
0.58183 0.15059 0.00310
0.60880 0.14995 0.00235
0.63596 0.14930 0.00160
0.66329 0.14866 0.00084
0.69081 0.14801 0.00007
0.71850 0.14736 0.00000
0.74635 0.14670 0.00000
0.77436 0.14604 0.00000
0.80253 0.14538 0.00000
0.83085 0.14471 0.00000
0.05134 0.18413 0.01589
0.06489 0.18381 0.01551
0.08181 0.18340 0.01503
0.10028 0.18295 0.01450
0.11985 0.18248 0.01394
0.14026 0.18199 0.01337
0.16138 0.18148 0.01277
0.18310 0.18096 0.01215
0.20535 0.18043 0.01152
0.22808 0.17988 0.01088
0.25124 0.17933 0.01023
0.27479 0.17876 0.00956
0.29871 0.17819 0.00889
0.32296 0.17761 0.00821
0.34753 0.17702 0.00752
0.37239 0.17643 0.00682
0.39754 0.17583 0.00612
0.42295 0.17523 0.00541
0.44861 0.17462 0.00469
0.47452 0.17400 0.00397
0.50065 0.17338 0.00324
0.52701 0.17276 0.00250
0.55357 0.17213 0.00177
0.58034 0.17149 0.00102
0.60730 0.17086 0.00027
0.63445 0.17022 0.00000
0.66179 0.16957 0.00000
0.68930 0.16892 0.00000
0.71698 0.16827 0.00000
0.74483 0.16762 0.00000
0.77283 0.16696 0.00000
0.80100 0.16630 0.00000
0.82931 0.16564 0.00000
0.04990 0.20545 0.01372
0.06345 0.20513 0.01333
0.08036 0.20472 0.01286
0.09884 0.20428 0.01233
0.11839 0.20381 0.01178
0.13880 0.20332 0.01120
0.15992 0.20281 0.01061
0.18164 0.20229 0.00999
0.20389 0.20176 0.00937
0.22661 0.20121 0.00873
0.24976 0.20066 0.00808
0.27331 0.20010 0.00741
0.29722 0.19953 0.00674
0.32147 0.19895 0.00607
0.34603 0.19836 0.00538
0.37090 0.19777 0.00468
0.39604 0.19718 0.00398
0.42144 0.19657 0.00327
0.44710 0.19596 0.00256
0.47300 0.19535 0.00184
0.49913 0.19473 0.00111
0.52548 0.19411 0.00038
0.55204 0.19348 0.00000
0.57880 0.19285 0.00000
0.60576 0.19222 0.00000
0.63291 0.19158 0.00000
0.66023 0.19094 0.00000
0.68774 0.19029 0.00000
0.71542 0.18964 0.00000
0.74326 0.18899 0.00000
0.77126 0.18834 0.00000
0.79942 0.18768 0.00000
0.82773 0.18702 0.00000
0.04842 0.22718 0.01151
0.06197 0.22686 0.01113
0.07888 0.22645 0.01065
0.09735 0.22601 0.01013
0.11690 0.22554 0.00958
0.13731 0.22505 0.00901
0.15842 0.22455 0.00841
0.18013 0.22403 0.00780
0.20238 0.22350 0.00718
0.22510 0.22296 0.00654
0.24825 0.22240 0.00589
0.27179 0.22184 0.00523
0.29569 0.22128 0.00457
0.31994 0.22070 0.00389
0.34450 0.22012 0.00320
0.36935 0.21953 0.00251
0.39449 0.21893 0.00181
0.41989 0.21833 0.00111
0.44555 0.21773 0.00040
0.47144 0.21711 0.00000
0.49756 0.21650 0.00000
0.52391 0.21588 0.00000
0.55046 0.21525 0.00000
0.57722 0.21462 0.00000
0.60417 0.21399 0.00000
0.63131 0.21336 0.00000
0.65864 0.21272 0.00000
0.68614 0.21207 0.00000
0.71381 0.21143 0.00000
0.74164 0.21078 0.00000
0.76964 0.21012 0.00000
0.79779 0.20947 0.00000
0.82610 0.20881 0.00000
0.04690 0.24929 0.00928
0.06044 0.24896 0.00890
0.07735 0.24856 0.00842
0.09582 0.24812 0.00790
0.11537 0.24765 0.00735
0.13577 0.24716 0.00678
0.15688 0.24666 0.00619
0.17859 0.24615 0.00558
0.20083 0.24562 0.00496
0.22354 0.24508 0.00433
0.24669 0.24453 0.00368
0.27022 0.24397 0.00302
0.29412 0.24340 0.00236
0.31836 0.24283 0.00169
0.34292 0.24225 0.00100
0.36777 0.24166 0.00031
0.39290 0.24107 0.00000
0.41830 0.24047 0.00000
0.44395 0.23986 0.00000
0.46984 0.23926 0.00000
0.49595 0.23864 0.00000
0.52229 0.23802 0.00000
0.54884 0.23740 0.00000
0.57559 0.23677 0.00000
0.60254 0.23614 0.00000
0.62968 0.23551 0.00000
0.65700 0.23487 0.00000
0.68449 0.23423 0.00000
0.71216 0.23359 0.00000
0.73999 0.23294 0.00000
0.76798 0.23229 0.00000
0.79612 0.23163 0.00000
0.82442 0.23098 0.00000
0.04534 0.27174 0.00702
0.05888 0.27142 0.00664
0.07579 0.27102 0.00616
0.09425 0.27058 0.00565
0.11379 0.27011 0.00510
0.13419 0.26963 0.00453
0.15529 0.26913 0.00394
0.17700 0.26861 0.00334
0.19924 0.26808 0.00272
0.22195 0.26755 0.00209
0.24509 0.26700 0.00144
0.26862 0.26644 0.00079
0.29252 0.26588 0.00013
0.31675 0.26531 0.00000
0.34130 0.26473 0.00000
0.36615 0.26414 0.00000
0.39127 0.26355 0.00000
0.41666 0.26295 0.00000
0.44231 0.26235 0.00000
0.46819 0.26175 0.00000
0.49430 0.26113 0.00000
0.52064 0.26052 0.00000
0.54718 0.25990 0.00000
0.57393 0.25927 0.00000
0.60087 0.25864 0.00000
0.62800 0.25801 0.00000
0.65531 0.25738 0.00000
0.68280 0.25674 0.00000
0.71046 0.25610 0.00000
0.73829 0.25545 0.00000
0.76627 0.25480 0.00000
0.79442 0.25415 0.00000
0.82271 0.25350 0.00000
0.04374 0.29452 0.00473
0.05728 0.29420 0.00436
0.07418 0.29380 0.00388
0.09264 0.29336 0.00337
0.11218 0.29290 0.00283
0.13257 0.29242 0.00226
0.15367 0.29192 0.00167
0.17537 0.29140 0.00107
0.19761 0.29088 0.00045
0.22031 0.29034 0.00000
0.24345 0.28980 0.00000
0.26698 0.28924 0.00000
0.29087 0.28868 0.00000
0.31510 0.28811 0.00000
0.33964 0.28753 0.00000
0.36448 0.28695 0.00000
0.38960 0.28636 0.00000
0.41499 0.28577 0.00000
0.44063 0.28517 0.00000
0.46651 0.28456 0.00000
0.49262 0.28395 0.00000
0.51894 0.28334 0.00000
0.54548 0.28272 0.00000
0.57222 0.28210 0.00000
0.59916 0.28147 0.00000
0.62629 0.28084 0.00000
0.65359 0.28021 0.00000
0.68108 0.27957 0.00000
0.70873 0.27893 0.00000
0.73655 0.27829 0.00000
0.76453 0.27764 0.00000
0.79267 0.27700 0.00000
0.82095 0.27634 0.00000
0.04210 0.31761 0.00243
0.05564 0.31729 0.00205
0.07254 0.31689 0.00159
0.09099 0.31645 0.00107
0.11053 0.31599 0.00053
0.13092 0.31551 0.00000
0.15201 0.31501 0.00000
0.17371 0.31450 0.00000
0.19594 0.31398 0.00000
0.21864 0.31344 0.00000
0.24177 0.31290 0.00000
0.26529 0.31235 0.00000
0.28918 0.31179 0.00000
0.31340 0.31122 0.00000
0.33794 0.31064 0.00000
0.36278 0.31006 0.00000
0.38790 0.30948 0.00000
0.41328 0.30888 0.00000
0.43891 0.30829 0.00000
0.46478 0.30768 0.00000
0.49089 0.30708 0.00000
0.51721 0.30646 0.00000
0.54374 0.30585 0.00000
0.57048 0.30523 0.00000
0.59741 0.30460 0.00000
0.62453 0.30398 0.00000
0.65183 0.30335 0.00000
0.67931 0.30271 0.00000
0.70696 0.30207 0.00000
0.73477 0.30143 0.00000
0.76275 0.30079 0.00000
0.79088 0.30014 0.00000
0.81916 0.29950 0.00000
0.04043 0.34098 0.00011
0.05396 0.34066 0.00000
0.07086 0.34026 0.00000
0.08931 0.33983 0.00000
0.10884 0.33937 0.00000
0.12923 0.33889 0.00000
0.15032 0.33839 0.00000
0.17201 0.33788 0.00000
0.19423 0.33736 0.00000
0.21693 0.33683 0.00000
0.24005 0.33629 0.00000
0.26357 0.33574 0.00000
0.28746 0.33518 0.00000
0.31167 0.33461 0.00000
0.33621 0.33404 0.00000
0.36104 0.33346 0.00000
0.38615 0.33288 0.00000
0.41153 0.33229 0.00000
0.43716 0.33169 0.00000
0.46302 0.33109 0.00000
0.48912 0.33049 0.00000
0.51544 0.32988 0.00000
0.54197 0.32926 0.00000
0.56870 0.32865 0.00000
0.59562 0.32803 0.00000
0.62274 0.32740 0.00000
0.65003 0.32677 0.00000
0.67750 0.32614 0.00000
0.70515 0.32550 0.00000
0.73295 0.32487 0.00000
0.76092 0.32423 0.00000
0.78905 0.32358 0.00000
0.81732 0.32294 0.00000
0.03872 0.36463 0.00000
0.05225 0.36431 0.00000
0.06914 0.36391 0.00000
0.08759 0.36348 0.00000
0.10712 0.36302 0.00000
0.12750 0.36254 0.00000
0.14858 0.36205 0.00000
0.17027 0.36154 0.00000
0.19249 0.36102 0.00000
0.21518 0.36049 0.00000
0.23830 0.35995 0.00000
0.26182 0.35940 0.00000
0.28569 0.35885 0.00000
0.30991 0.35828 0.00000
0.33444 0.35771 0.00000
0.35926 0.35714 0.00000
0.38437 0.35655 0.00000
0.40974 0.35597 0.00000
0.43536 0.35537 0.00000
0.46122 0.35477 0.00000
0.48732 0.35417 0.00000
0.51363 0.35356 0.00000
0.54015 0.35295 0.00000
0.56688 0.35234 0.00000
0.59380 0.35172 0.00000
0.62090 0.35110 0.00000
0.64819 0.35047 0.00000
0.67566 0.34984 0.00000
0.70330 0.34921 0.00000
0.73110 0.34857 0.00000
0.75906 0.34793 0.00000
0.78718 0.34729 0.00000
0.81545 0.34665 0.00000
0.03697 0.38853 0.00000
0.05050 0.38821 0.00000
0.06739 0.38782 0.00000
0.08583 0.38739 0.00000
0.10536 0.38693 0.00000
0.12574 0.38645 0.00000
0.14682 0.38596 0.00000
0.16850 0.38546 0.00000
0.19071 0.38494 0.00000
0.21340 0.38441 0.00000
0.23651 0.38387 0.00000
0.26002 0.38333 0.00000
0.28390 0.38277 0.00000
0.30810 0.38221 0.00000
0.33263 0.38164 0.00000
0.35745 0.38107 0.00000
0.38255 0.38049 0.00000
0.40792 0.37990 0.00000
0.43353 0.37931 0.00000
0.45939 0.37872 0.00000
0.48548 0.37812 0.00000
0.51178 0.37751 0.00000
0.53830 0.37690 0.00000
0.56502 0.37629 0.00000
0.59193 0.37567 0.00000
0.61903 0.37505 0.00000
0.64632 0.37443 0.00000
0.67378 0.37380 0.00000
0.70141 0.37317 0.00000
0.72921 0.37254 0.00000
0.75716 0.37190 0.00000
0.78528 0.37126 0.00000
0.81354 0.37062 0.00000
0.03519 0.41268 0.00000
0.04872 0.41237 0.00000
0.06560 0.41197 0.00000
0.08404 0.41154 0.00000
0.10356 0.41109 0.00000
0.12393 0.41061 0.00000
0.14501 0.41012 0.00000
0.16669 0.40962 0.00000
0.18890 0.40910 0.00000
0.21158 0.40858 0.00000
0.23469 0.40804 0.00000
0.25819 0.40750 0.00000
0.28206 0.40694 0.00000
0.30626 0.40639 0.00000
0.33078 0.40582 0.00000
0.35560 0.40525 0.00000
0.38069 0.40467 0.00000
0.40605 0.40409 0.00000
0.43167 0.40350 0.00000
0.45752 0.40290 0.00000
0.48360 0.40231 0.00000
0.50990 0.40170 0.00000
0.53641 0.40110 0.00000
0.56312 0.40049 0.00000
0.59003 0.39987 0.00000
0.61713 0.39925 0.00000
0.64441 0.39863 0.00000
0.67186 0.39801 0.00000
0.69949 0.39738 0.00000
0.72728 0.39675 0.00000
0.75523 0.39612 0.00000
0.78333 0.39548 0.00000
0.81159 0.39484 0.00000
0.03337 0.43707 0.00000
0.04690 0.43675 0.00000
0.06378 0.43636 0.00000
0.08221 0.43593 0.00000
0.10173 0.43548 0.00000
0.12210 0.43501 0.00000
0.14317 0.43452 0.00000
0.16484 0.43402 0.00000
0.18705 0.43350 0.00000
0.20972 0.43298 0.00000
0.23283 0.43244 0.00000
0.25633 0.43190 0.00000
0.28019 0.43135 0.00000
0.30439 0.43080 0.00000
0.32890 0.43023 0.00000
0.35371 0.42966 0.00000
0.37880 0.42909 0.00000
0.40416 0.42850 0.00000
0.42976 0.42792 0.00000
0.45561 0.42733 0.00000
0.48168 0.42673 0.00000
0.50798 0.42613 0.00000
0.53448 0.42553 0.00000
0.56119 0.42492 0.00000
0.58809 0.42431 0.00000
0.61518 0.42369 0.00000
0.64246 0.42307 0.00000
0.66991 0.42245 0.00000
0.69752 0.42183 0.00000
0.72531 0.42120 0.00000
0.75325 0.42057 0.00000
0.78135 0.41993 0.00000
0.80961 0.41930 0.00000
0.03152 0.46168 0.00000
0.04504 0.46136 0.00000
0.06192 0.46097 0.00000
0.08035 0.46055 0.00000
0.09986 0.46010 0.00000
0.12023 0.45963 0.00000
0.14129 0.45914 0.00000
0.16296 0.45864 0.00000
0.18516 0.45813 0.00000
0.20783 0.45761 0.00000
0.23093 0.45707 0.00000
0.25443 0.45653 0.00000
0.27828 0.45599 0.00000
0.30248 0.45543 0.00000
0.32698 0.45487 0.00000
0.35179 0.45430 0.00000
0.37687 0.45373 0.00000
0.40222 0.45315 0.00000
0.42782 0.45257 0.00000
0.45366 0.45198 0.00000
0.47973 0.45138 0.00000
0.50602 0.45079 0.00000
0.53252 0.45018 0.00000
0.55922 0.44958 0.00000
0.58612 0.44897 0.00000
0.61320 0.44836 0.00000
0.64047 0.44774 0.00000
0.66791 0.44712 0.00000
0.69553 0.44650 0.00000
0.72330 0.44587 0.00000
0.75124 0.44524 0.00000
0.77934 0.44461 0.00000
0.80758 0.44398 0.00000
0.02963 0.48651 0.00000
0.04315 0.48619 0.00000
0.06002 0.48580 0.00000
0.07845 0.48538 0.00000
0.09796 0.48493 0.00000
0.11832 0.48446 0.00000
0.13938 0.48398 0.00000
0.16104 0.48348 0.00000
0.18324 0.48297 0.00000
0.20591 0.48245 0.00000
0.22900 0.48192 0.00000
0.25249 0.48138 0.00000
0.27634 0.48084 0.00000
0.30053 0.48028 0.00000
0.32503 0.47973 0.00000
0.34983 0.47916 0.00000
0.37491 0.47859 0.00000
0.40025 0.47801 0.00000
0.42585 0.47743 0.00000
0.45168 0.47684 0.00000
0.47775 0.47625 0.00000
0.50403 0.47566 0.00000
0.53052 0.47506 0.00000
0.55722 0.47445 0.00000
0.58411 0.47385 0.00000
0.61119 0.47324 0.00000
0.63845 0.47262 0.00000
0.66589 0.47201 0.00000
0.69349 0.47139 0.00000
0.72126 0.47076 0.00000
0.74920 0.47014 0.00000
0.77729 0.46951 0.00000
0.80552 0.46888 0.00000
0.02771 0.51154 0.00000
0.04122 0.51123 0.00000
0.05809 0.51084 0.00000
0.07652 0.51042 0.00000
0.09602 0.50997 0.00000
0.11638 0.50951 0.00000
0.13743 0.50902 0.00000
0.15909 0.50853 0.00000
0.18128 0.50802 0.00000
0.20394 0.50750 0.00000
0.22703 0.50698 0.00000
0.25052 0.50644 0.00000
0.27436 0.50590 0.00000
0.29855 0.50535 0.00000
0.32304 0.50479 0.00000
0.34784 0.50423 0.00000
0.37291 0.50366 0.00000
0.39825 0.50308 0.00000
0.42384 0.50250 0.00000
0.44967 0.50192 0.00000
0.47572 0.50133 0.00000
0.50200 0.50074 0.00000
0.52849 0.50014 0.00000
0.55518 0.49954 0.00000
0.58206 0.49894 0.00000
0.60914 0.49833 0.00000
0.63639 0.49772 0.00000
0.66382 0.49710 0.00000
0.69142 0.49648 0.00000
0.71919 0.49586 0.00000
0.74711 0.49524 0.00000
0.77520 0.49461 0.00000
0.80343 0.49399 0.00000
0.02575 0.53678 0.00000
0.03926 0.53647 0.00000
0.05613 0.53609 0.00000
0.07455 0.53566 0.00000
0.09405 0.53522 0.00000
0.11440 0.53475 0.00000
0.13545 0.53427 0.00000
0.15711 0.53378 0.00000
0.17929 0.53327 0.00000
0.20195 0.53276 0.00000
0.22503 0.53223 0.00000
0.24851 0.53170 0.00000
0.27235 0.53116 0.00000
0.29653 0.53061 0.00000
0.32102 0.53006 0.00000
0.34581 0.52949 0.00000
0.37088 0.52893 0.00000
0.39621 0.52836 0.00000
0.42179 0.52778 0.00000
0.44761 0.52720 0.00000
0.47367 0.52661 0.00000
0.49994 0.52602 0.00000
0.52642 0.52543 0.00000
0.55310 0.52483 0.00000
0.57998 0.52423 0.00000
0.60705 0.52362 0.00000
0.63430 0.52301 0.00000
0.66172 0.52240 0.00000
0.68932 0.52178 0.00000
0.71708 0.52117 0.00000
0.74500 0.52055 0.00000
0.77307 0.51992 0.00000
0.80130 0.51930 0.00000
0.02376 0.56221 0.00000
0.03727 0.56191 0.00000
0.05413 0.56152 0.00000
0.07254 0.56110 0.00000
0.09204 0.56066 0.00000
0.11239 0.56019 0.00000
0.13343 0.55972 0.00000
0.15508 0.55922 0.00000
0.17726 0.55872 0.00000
0.19991 0.55821 0.00000
0.22299 0.55768 0.00000
0.24647 0.55715 0.00000
0.27030 0.55661 0.00000
0.29447 0.55607 0.00000
0.31896 0.55552 0.00000
0.34374 0.55496 0.00000
0.36881 0.55439 0.00000
0.39413 0.55382 0.00000
0.41971 0.55325 0.00000
0.44553 0.55267 0.00000
0.47157 0.55209 0.00000
0.49784 0.55150 0.00000
0.52431 0.55091 0.00000
0.55099 0.55031 0.00000
0.57786 0.54971 0.00000
0.60493 0.54911 0.00000
0.63217 0.54850 0.00000
0.65959 0.54789 0.00000
0.68717 0.54728 0.00000
0.71493 0.54666 0.00000
0.74284 0.54605 0.00000
0.77091 0.54542 0.00000
0.79913 0.54480 0.00000
0.02173 0.58784 0.00000
0.03524 0.58753 0.00000
0.05210 0.58715 0.00000
0.07051 0.58673 0.00000
0.09000 0.58629 0.00000
0.11034 0.58582 0.00000
0.13138 0.58535 0.00000
0.15303 0.58486 0.00000
0.17520 0.58436 0.00000
0.19785 0.58384 0.00000
0.22092 0.58332 0.00000
0.24439 0.58279 0.00000
0.26822 0.58226 0.00000
0.29239 0.58171 0.00000
0.31687 0.58116 0.00000
0.34164 0.58061 0.00000
0.36670 0.58005 0.00000
0.39202 0.57948 0.00000
0.41759 0.57891 0.00000
0.44340 0.57833 0.00000
0.46944 0.57775 0.00000
0.49570 0.57716 0.00000
0.52217 0.57657 0.00000
0.54884 0.57598 0.00000
0.57571 0.57538 0.00000
0.60277 0.57478 0.00000
0.63000 0.57418 0.00000
0.65741 0.57357 0.00000
0.68500 0.57296 0.00000
0.71274 0.57235 0.00000
0.74065 0.57173 0.00000
0.76871 0.57112 0.00000
0.79693 0.57050 0.00000
0.01967 0.61364 0.00000
0.03317 0.61333 0.00000
0.05003 0.61295 0.00000
0.06843 0.61254 0.00000
0.08792 0.61210 0.00000
0.10826 0.61164 0.00000
0.12929 0.61116 0.00000
0.15093 0.61067 0.00000
0.17310 0.61017 0.00000
0.19575 0.60966 0.00000
0.21882 0.60915 0.00000
0.24228 0.60862 0.00000
0.26610 0.60809 0.00000
0.29026 0.60754 0.00000
0.31474 0.60700 0.00000
0.33951 0.60644 0.00000
0.36456 0.60588 0.00000
0.38987 0.60532 0.00000
0.41544 0.60475 0.00000
0.44125 0.60417 0.00000
0.46728 0.60360 0.00000
0.49353 0.60301 0.00000
0.52000 0.60243 0.00000
0.54666 0.60183 0.00000
0.57352 0.60124 0.00000
0.60057 0.60064 0.00000
0.62780 0.60004 0.00000
0.65521 0.59944 0.00000
0.68278 0.59883 0.00000
0.71052 0.59822 0.00000
0.73842 0.59761 0.00000
0.76648 0.59699 0.00000
0.79469 0.59637 0.00000
0.01758 0.63962 0.00000
0.03107 0.63932 0.00000
0.04792 0.63894 0.00000
0.06632 0.63852 0.00000
0.08581 0.63808 0.00000
0.10614 0.63762 0.00000
0.12717 0.63715 0.00000
0.14881 0.63667 0.00000
0.17097 0.63617 0.00000
