Sources/PalmierPro/Resources/DomainPacks/LUTs/malay_wedding_lut3.cube
TITLE "malay_wedding_lut3"
LUT_3D_SIZE 9
0.16050 0.14744 0.14206
0.28186 0.15616 0.14988
0.36564 0.16218 0.15532
0.43937 0.16748 0.16013
0.50723 0.17236 0.16457
0.57104 0.17694 0.16877
0.63179 0.18131 0.17278
0.69011 0.18550 0.17664
0.74643 0.18955 0.18038
0.18988 0.28934 0.16860
0.31107 0.29805 0.17661
0.39474 0.30406 0.18217
0.46836 0.30935 0.18709
0.53612 0.31422 0.19164
0.59984 0.31880 0.19592
0.66051 0.32316 0.20002
0.71876 0.32735 0.20397
0.77500 0.33139 0.20779
0.20984 0.38730 0.18729
0.33091 0.39601 0.19542
0.41450 0.40201 0.20107
0.48805 0.40730 0.20606
0.55575 0.41217 0.21068
0.61941 0.41674 0.21503
0.68002 0.42110 0.21919
0.73821 0.42528 0.22320
0.79439 0.42932 0.22708
0.22718 0.47352 0.20398
0.34815 0.48221 0.21222
0.43167 0.48822 0.21794
0.50515 0.49350 0.22300
0.57280 0.49836 0.22767
0.63640 0.50294 0.23209
0.69696 0.50729 0.23630
0.75510 0.51147 0.24036
0.81124 0.51551 0.24429
0.24296 0.55289 0.21954
0.36384 0.56158 0.22788
0.44729 0.56758 0.23367
0.52072 0.57286 0.23879
0.58831 0.57772 0.24352
0.65187 0.58228 0.24799
0.71238 0.58664 0.25225
0.77047 0.59081 0.25636
0.82657 0.59485 0.26034
0.25764 0.62752 0.23435
0.37843 0.63621 0.24278
0.46182 0.64220 0.24864
0.53520 0.64748 0.25381
0.60274 0.65233 0.25860
0.66625 0.65690 0.26311
0.72672 0.66125 0.26742
0.78477 0.66542 0.27158
0.84082 0.66945 0.27560
0.27148 0.69859 0.24860
0.39218 0.70727 0.25713
0.47551 0.71326 0.26305
0.54884 0.71853 0.26828
0.61633 0.72339 0.27311
0.67980 0.72795 0.27767
0.74022 0.73229 0.28203
0.79823 0.73647 0.28623
0.85425 0.74049 0.29029
0.28463 0.76682 0.26243
0.40525 0.77549 0.27105
0.48853 0.78148 0.27702
0.56180 0.78675 0.28231
0.62925 0.79160 0.28719
0.69268 0.79616 0.29180
0.75306 0.80050 0.29620
0.81103 0.80467 0.30044
0.86701 0.80870 0.30454
0.29721 0.83271 0.27592
0.41775 0.84138 0.28462
0.50097 0.84736 0.29066
0.57420 0.85263 0.29599
0.64161 0.85747 0.30092
0.70499 0.86203 0.30557
0.76533 0.86637 0.31001
0.82326 0.87054 0.31429
0.87921 0.87456 0.31843
0.16349 0.15040 0.25728
0.28484 0.15912 0.26512
0.36861 0.16514 0.27057
0.44232 0.17044 0.27539
0.51017 0.17532 0.27985
0.57397 0.17990 0.28405
0.63472 0.18427 0.28807
0.69303 0.18846 0.29194
0.74934 0.19251 0.29569
0.19281 0.29229 0.28389
0.31399 0.30100 0.29191
0.39764 0.30701 0.29749
0.47125 0.31231 0.30241
0.53901 0.31718 0.30697
0.60272 0.32176 0.31127
0.66338 0.32612 0.31537
0.72162 0.33030 0.31933
0.77785 0.33434 0.32316
0.21273 0.39026 0.30262
0.33379 0.39896 0.31077
0.41736 0.40497 0.31643
0.49090 0.41025 0.32143
0.55859 0.41512 0.32605
0.62225 0.41970 0.33042
0.68285 0.42405 0.33458
0.74103 0.42823 0.33860
0.79721 0.43227 0.34249
0.23004 0.47647 0.31934
0.35100 0.48517 0.32760
0.43450 0.49117 0.33333
0.50797 0.49645 0.33840
0.57561 0.50131 0.34309
0.63921 0.50589 0.34751
0.69976 0.51024 0.35173
0.75789 0.51442 0.35580
0.81402 0.51845 0.35974
0.24579 0.55584 0.33493
0.36665 0.56453 0.34329
0.45009 0.57053 0.34910
0.52351 0.57580 0.35423
0.59109 0.58066 0.35897
0.65464 0.58523 0.36344
0.71514 0.58958 0.36772
0.77323 0.59376 0.37183
0.82931 0.59779 0.37582
0.26044 0.63047 0.34977
0.38121 0.63916 0.35823
0.46459 0.64515 0.36410
0.53796 0.65043 0.36928
0.60549 0.65528 0.37408
0.66899 0.65985 0.37860
0.72945 0.66419 0.38292
0.78749 0.66837 0.38708
0.84354 0.67240 0.39112
0.27425 0.70154 0.36406
0.39494 0.71022 0.37260
0.47825 0.71621 0.37853
0.55157 0.72148 0.38378
0.61905 0.72633 0.38862
0.68251 0.73089 0.39319
0.74293 0.73524 0.39756
0.80093 0.73941 0.40176
0.85694 0.74344 0.40584
0.28737 0.76977 0.37792
0.40798 0.77844 0.38655
0.49124 0.78442 0.39254
0.56450 0.78969 0.39784
0.63195 0.79454 0.40273
0.69536 0.79910 0.40734
0.75574 0.80344 0.41175
0.81370 0.80761 0.41600
0.86967 0.81164 0.42011
0.29992 0.83565 0.39144
0.42045 0.84432 0.40015
0.50366 0.85030 0.40620
0.57687 0.85557 0.41155
0.64427 0.86042 0.41649
0.70764 0.86497 0.42115
0.76798 0.86931 0.42560
0.82591 0.87348 0.42989
0.88184 0.87750 0.43404
0.16556 0.15245 0.33685
0.28689 0.16117 0.34471
0.37065 0.16719 0.35017
0.44435 0.17249 0.35499
0.51220 0.17736 0.35946
0.57599 0.18195 0.36367
0.63673 0.18631 0.36769
0.69504 0.19050 0.37157
0.75135 0.19455 0.37532
0.19484 0.29434 0.36350
0.31600 0.30304 0.37154
0.39964 0.30906 0.37712
0.47325 0.31435 0.38206
0.54100 0.31922 0.38662
0.60470 0.32380 0.39093
0.66536 0.32816 0.39504
0.72359 0.33234 0.39900
0.77982 0.33638 0.40284
0.21473 0.39230 0.38226
0.33577 0.40100 0.39042
0.41934 0.40701 0.39609
0.49287 0.41229 0.40110
0.56056 0.41716 0.40573
0.62420 0.42173 0.41010
0.68480 0.42609 0.41428
0.74297 0.43027 0.41830
0.79914 0.43431 0.42220
0.23201 0.47851 0.39901
0.35296 0.48721 0.40728
0.43645 0.49321 0.41302
0.50992 0.49849 0.41810
0.57755 0.50335 0.42279
0.64114 0.50792 0.42722
0.70168 0.51228 0.43145
0.75981 0.51645 0.43552
0.81593 0.52049 0.43947
0.24774 0.55788 0.41463
0.36859 0.56657 0.42300
0.45202 0.57256 0.42881
0.52543 0.57784 0.43395
0.59301 0.58270 0.43870
0.65655 0.58727 0.44318
0.71705 0.59162 0.44746
0.77512 0.59579 0.45158
0.83121 0.59983 0.45557
0.26237 0.63251 0.42949
0.38313 0.64119 0.43796
0.46650 0.64719 0.44383
0.53986 0.65246 0.44903
0.60738 0.65732 0.45383
0.67088 0.66188 0.45836
0.73133 0.66623 0.46269
0.78937 0.67040 0.46685
0.84541 0.67443 0.47089
0.27616 0.70357 0.44380
0.39683 0.71225 0.45235
0.48014 0.71824 0.45829
0.55345 0.72351 0.46354
0.62093 0.72836 0.46839
0.68438 0.73293 0.47297
0.74479 0.73727 0.47734
0.80279 0.74144 0.48156
0.85879 0.74547 0.48563
0.28926 0.77180 0.45768
0.40986 0.78047 0.46632
0.49311 0.78646 0.47232
0.56637 0.79173 0.47762
0.63380 0.79657 0.48252
0.69721 0.80113 0.48714
0.75758 0.80548 0.49156
0.81554 0.80964 0.49581
0.87150 0.81367 0.49993
0.30179 0.83769 0.47122
0.42231 0.84635 0.47994
0.50551 0.85234 0.48600
0.57872 0.85760 0.49135
0.64611 0.86245 0.49630
0.70948 0.86700 0.50097
0.76981 0.87134 0.50542
0.82773 0.87551 0.50972
0.88365 0.87953 0.51387
0.16737 0.15425 0.40689
0.28869 0.16297 0.41476
0.37244 0.16899 0.42023
0.44614 0.17428 0.42506
0.51398 0.17916 0.42953
0.57777 0.18374 0.43374
0.63851 0.18811 0.43777
0.69681 0.19230 0.44166
0.75311 0.19635 0.44542
0.19662 0.29613 0.43358
0.31777 0.30484 0.44163
0.40141 0.31085 0.44722
0.47500 0.31614 0.45216
0.54275 0.32101 0.45673
0.60645 0.32559 0.46104
0.66710 0.32995 0.46516
0.72532 0.33414 0.46913
0.78154 0.33818 0.47297
0.21648 0.39410 0.45236
0.33752 0.40280 0.46054
0.42108 0.40880 0.46621
0.49460 0.41409 0.47123
0.56228 0.41895 0.47587
0.62592 0.42353 0.48024
0.68651 0.42788 0.48443
0.74468 0.43207 0.48845
0.80085 0.43610 0.49235
0.23374 0.48031 0.46914
0.35468 0.48900 0.47742
0.43816 0.49500 0.48317
0.51163 0.50028 0.48825
0.57925 0.50514 0.49295
0.64284 0.50972 0.49738
0.70338 0.51407 0.50162
0.76150 0.51825 0.50570
0.81762 0.52228 0.50965
0.24945 0.55967 0.48478
0.37029 0.56836 0.49316
0.45371 0.57436 0.49898
0.52712 0.57963 0.50412
0.59469 0.58449 0.50888
0.65823 0.58906 0.51336
0.71872 0.59341 0.51765
0.77679 0.59758 0.52178
0.83287 0.60162 0.52578
0.26407 0.63430 0.49966
0.38482 0.64298 0.50813
0.46818 0.64898 0.51402
0.54153 0.65425 0.51922
0.60905 0.65911 0.52403
0.67254 0.66367 0.52856
0.73299 0.66802 0.53290
0.79102 0.67219 0.53707
0.84705 0.67622 0.54111
0.27784 0.70537 0.51398
0.39850 0.71404 0.52255
0.48180 0.72003 0.52850
0.55510 0.72530 0.53375
0.62258 0.73015 0.53861
0.68602 0.73472 0.54319
0.74643 0.73906 0.54757
0.80442 0.74323 0.55179
0.86042 0.74726 0.55587
0.29092 0.77359 0.52788
0.41151 0.78226 0.53654
0.49475 0.78825 0.54254
0.56801 0.79351 0.54785
0.63543 0.79836 0.55276
0.69884 0.80292 0.55739
0.75920 0.80726 0.56181
0.81715 0.81143 0.56606
0.87311 0.81546 0.57019
0.30344 0.83948 0.54144
0.42395 0.84814 0.55017
0.50714 0.85412 0.55624
0.58034 0.85939 0.56160
0.64773 0.86423 0.56655
0.71109 0.86879 0.57122
0.77141 0.87313 0.57569
0.82933 0.87729 0.57999
0.88525 0.88132 0.58415
0.16904 0.15591 0.47138
0.29035 0.16462 0.47926
0.37410 0.17064 0.48474
0.44779 0.17594 0.48958
0.51562 0.18081 0.49405
0.57941 0.18540 0.49827
0.64014 0.18976 0.50230
0.69844 0.19395 0.50619
0.75473 0.19800 0.50996
0.19825 0.29779 0.49811
0.31939 0.30650 0.50617
0.40302 0.31251 0.51176
0.47662 0.31780 0.51671
0.54436 0.32267 0.52129
0.60805 0.32724 0.52560
0.66870 0.33160 0.52973
0.72692 0.33579 0.53370
0.78313 0.33983 0.53755
0.21810 0.39575 0.51691
0.33912 0.40445 0.52510
0.42267 0.41046 0.53078
0.49619 0.41574 0.53580
0.56387 0.42061 0.54045
0.62750 0.42518 0.54483
0.68809 0.42954 0.54901
0.74625 0.43372 0.55305
0.80242 0.43775 0.55695
0.23534 0.48196 0.53371
0.35626 0.49065 0.54200
0.43974 0.49665 0.54776
0.51320 0.50193 0.55285
0.58082 0.50680 0.55755
0.64440 0.51137 0.56199
0.70493 0.51572 0.56623
0.76305 0.51990 0.57031
0.81916 0.52393 0.57427
0.25103 0.56132 0.54936
0.37186 0.57001 0.55776
0.45527 0.57601 0.56359
0.52867 0.58128 0.56874
0.59624 0.58614 0.57349
0.65977 0.59071 0.57799
0.72026 0.59506 0.58228
0.77833 0.59923 0.58641
0.83440 0.60326 0.59041
0.26562 0.63595 0.56426
0.38637 0.64463 0.57275
0.46972 0.65063 0.57864
0.54307 0.65590 0.58385
0.61058 0.66075 0.58866
0.67407 0.66532 0.59320
0.73451 0.66967 0.59754
0.79254 0.67384 0.60172
0.84857 0.67787 0.60577
0.27938 0.70701 0.57861
0.40004 0.71569 0.58718
0.48333 0.72168 0.59314
0.55663 0.72695 0.59840
0.62409 0.73180 0.60326
0.68753 0.73636 0.60785
0.74794 0.74071 0.61224
0.80592 0.74488 0.61646
0.86191 0.74890 0.62055
0.29245 0.77524 0.59252
0.41303 0.78391 0.60119
0.49627 0.78989 0.60720
0.56951 0.79516 0.61251
0.63693 0.80001 0.61743
0.70033 0.80457 0.62206
0.76069 0.80891 0.62649
0.81864 0.81308 0.63075
0.87459 0.81710 0.63488
0.30495 0.84112 0.60609
0.42545 0.84979 0.61484
0.50863 0.85577 0.62091
0.58183 0.86103 0.62628
0.64921 0.86588 0.63124
0.71257 0.87044 0.63591
0.77289 0.87477 0.64038
0.83080 0.87894 0.64469
0.88672 0.88296 0.64885
0.17060 0.15747 0.53204
0.29191 0.16618 0.53993
0.37565 0.17220 0.54541
0.44933 0.17750 0.55025
0.51716 0.18237 0.55473
0.58094 0.18696 0.55896
0.64167 0.19132 0.56300
0.69996 0.19551 0.56689
0.75626 0.19956 0.57066
0.19979 0.29935 0.55879
0.32092 0.30805 0.56686
0.40455 0.31406 0.57247
0.47813 0.31935 0.57742
0.54587 0.32422 0.58200
0.60956 0.32880 0.58632
0.67020 0.33316 0.59045
0.72841 0.33734 0.59443
0.78463 0.34138 0.59828
0.21961 0.39731 0.57762
0.34063 0.40600 0.58582
0.42417 0.41201 0.59151
0.49769 0.41729 0.59654
0.56536 0.42216 0.60118
0.62899 0.42673 0.60557
0.68957 0.43109 0.60976
0.74773 0.43527 0.61380
0.80389 0.43931 0.61771
0.23684 0.48351 0.59444
0.35775 0.49221 0.60274
0.44122 0.49821 0.60850
0.51468 0.50349 0.61360
0.58229 0.50835 0.61831
0.64587 0.51292 0.62275
0.70640 0.51727 0.62700
0.76451 0.52145 0.63109
0.82062 0.52548 0.63505
0.25251 0.56288 0.61011
0.37333 0.57156 0.61851
0.45674 0.57756 0.62435
0.53013 0.58283 0.62950
0.59769 0.58769 0.63427
0.66122 0.59226 0.63877
0.72170 0.59661 0.64306
0.77977 0.60078 0.64720
0.83584 0.60481 0.65121
0.26709 0.63750 0.62503
0.38782 0.64618 0.63352
0.47117 0.65218 0.63942
0.54451 0.65745 0.64464
0.61202 0.66230 0.64946
0.67550 0.66687 0.65400
0.73594 0.67122 0.65834
0.79396 0.67539 0.66253
0.84999 0.67942 0.66658
0.28083 0.70857 0.63939
0.40148 0.71724 0.64797
0.48476 0.72323 0.65394
0.55805 0.72850 0.65920
0.62552 0.73335 0.66407
0.68895 0.73791 0.66867
0.74935 0.74225 0.67305
0.80733 0.74642 0.67728
0.86332 0.75045 0.68137
0.29389 0.77679 0.65332
0.41445 0.78546 0.66199
0.49769 0.79144 0.66801
0.57093 0.79671 0.67333
0.63834 0.80156 0.67825
0.70174 0.80612 0.68289
0.76209 0.81046 0.68732
0.82003 0.81462 0.69159
0.87598 0.81865 0.69572
0.30637 0.84267 0.66690
0.42686 0.85134 0.67566
0.51004 0.85732 0.68174
0.58323 0.86258 0.68711
0.65061 0.86743 0.69207
0.71396 0.87198 0.69676
0.77428 0.87632 0.70123
0.83218 0.88049 0.70554
0.88809 0.88451 0.70971
0.17209 0.15895 0.58980
0.29339 0.16767 0.59770
0.37712 0.17368 0.60319
0.45081 0.17898 0.60804
0.51863 0.18385 0.61252
0.58241 0.18844 0.61675
0.64313 0.19280 0.62080
0.70142 0.19699 0.62469
0.75771 0.20104 0.62847
0.20125 0.30083 0.61659
0.32237 0.30953 0.62467
0.40599 0.31554 0.63028
0.47957 0.32083 0.63524
0.54730 0.32570 0.63982
0.61099 0.33028 0.64415
0.67163 0.33464 0.64828
0.72984 0.33882 0.65226
0.78605 0.34286 0.65612
0.22105 0.39879 0.63544
0.34206 0.40749 0.64364
0.42560 0.41349 0.64934
0.49911 0.41877 0.65437
0.56678 0.42364 0.65903
0.63040 0.42821 0.66342
0.69098 0.43257 0.66761
0.74913 0.43675 0.67165
0.80529 0.44079 0.67557
0.23826 0.48499 0.65227
0.35917 0.49369 0.66058
0.44263 0.49969 0.66635
0.51608 0.50497 0.67145
0.58369 0.50983 0.67617
0.64726 0.51440 0.68062
0.70779 0.51875 0.68487
0.76589 0.52293 0.68896
0.82200 0.52696 0.69293
0.25392 0.56435 0.66796
0.37473 0.57304 0.67638
0.45813 0.57904 0.68222
0.53152 0.58431 0.68738
0.59908 0.58917 0.69215
0.66260 0.59374 0.69665
0.72308 0.59809 0.70095
0.78114 0.60226 0.70509
0.83720 0.60629 0.70910
0.26848 0.63898 0.68290
0.38921 0.64766 0.69140
0.47255 0.65365 0.69731
0.54588 0.65893 0.70253
0.61339 0.66378 0.70735
0.67686 0.66835 0.71190
0.73730 0.67269 0.71625
0.79532 0.67686 0.72044
0.85134 0.68089 0.72449
0.28221 0.71004 0.69727
0.40285 0.71872 0.70587
0.48613 0.72470 0.71183
0.55941 0.72997 0.71711
0.62687 0.73483 0.72198
0.69030 0.73939 0.72658
0.75070 0.74373 0.73097
0.80867 0.74790 0.73520
0.86466 0.75192 0.73930
0.29525 0.77826 0.71122
0.41581 0.78693 0.71990
0.49904 0.79292 0.72593
0.57227 0.79818 0.73125
0.63968 0.80303 0.73617
0.70307 0.80759 0.74082
0.76342 0.81193 0.74525
0.82136 0.81610 0.74953
0.87731 0.82012 0.75366
0.30772 0.84415 0.72482
0.42820 0.85281 0.73358
0.51138 0.85879 0.73967
0.58456 0.86406 0.74504
0.65193 0.86890 0.75001
0.71528 0.87346 0.75470
0.77559 0.87779 0.75918
0.83349 0.88196 0.76349
0.88940 0.88598 0.76767
0.17352 0.16037 0.64527
0.29481 0.16909 0.65318
0.37854 0.17511 0.65867
0.45222 0.18040 0.66353
0.52004 0.18528 0.66801
0.58381 0.18986 0.67225
0.64452 0.19423 0.67630
0.70281 0.19841 0.68020
0.75910 0.20246 0.68398
0.20265 0.30225 0.67209
0.32377 0.31096 0.68017
0.40738 0.31697 0.68579
0.48096 0.32226 0.69075
0.54868 0.32712 0.69534
0.61236 0.33170 0.69967
0.67300 0.33606 0.70381
0.73120 0.34024 0.70780
0.78741 0.34428 0.71166
0.22244 0.40021 0.69096
0.34344 0.40891 0.69917
0.42697 0.41491 0.70487
0.50047 0.42020 0.70991
0.56814 0.42506 0.71457
0.63176 0.42963 0.71896
0.69233 0.43399 0.72316
0.75048 0.43817 0.72721
0.80663 0.44220 0.73113
0.23963 0.48641 0.70780
0.36053 0.49511 0.71613
0.44399 0.50111 0.72190
0.51743 0.50639 0.72701
0.58503 0.51125 0.73173
0.64860 0.51582 0.73618
0.70912 0.52017 0.74043
0.76722 0.52434 0.74453
0.82333 0.52838 0.74850
0.25527 0.56577 0.72351
0.37607 0.57446 0.73194
0.45947 0.58045 0.73778
0.53286 0.58573 0.74295
0.60041 0.59059 0.74772
0.66392 0.59515 0.75223
0.72440 0.59950 0.75653
0.78245 0.60368 0.76068
0.83852 0.60771 0.76470
0.26982 0.64040 0.73846
0.39053 0.64908 0.74698
0.47387 0.65507 0.75289
0.54720 0.66035 0.75811
0.61470 0.66520 0.76294
0.67817 0.66976 0.76750
0.73860 0.67411 0.77185
0.79662 0.67828 0.77604
0.85264 0.68231 0.78010
0.28353 0.71146 0.75285
0.40416 0.72013 0.76146
0.48744 0.72612 0.76743
0.56072 0.73139 0.77271
0.62817 0.73624 0.77759
0.69160 0.74080 0.78219
0.75199 0.74515 0.78659
0.80996 0.74931 0.79082
0.86594 0.75334 0.79492
0.29656 0.77968 0.76681
0.41711 0.78835 0.77550
0.50033 0.79433 0.78154
0.57356 0.79960 0.78687
0.64097 0.80445 0.79179
0.70435 0.80901 0.79644
0.76470 0.81335 0.80088
0.82264 0.81751 0.80516
0.87858 0.82154 0.80930
0.30902 0.84556 0.78043
0.42949 0.85423 0.78920
0.51266 0.86021 0.79529
0.58584 0.86547 0.80067
0.65321 0.87032 0.80565
0.71655 0.87487 0.81034
0.77686 0.87921 0.81482
0.83475 0.88337 0.81914
0.89066 0.88739 0.82332
0.17490 0.16175 0.69884
0.29618 0.17047 0.70676
0.37990 0.17648 0.71226
0.45358 0.18178 0.71712
0.52139 0.18665 0.72161
0.58516 0.19124 0.72585
0.64587 0.19560 0.72990
0.70416 0.19979 0.73381
0.76044 0.20383 0.73759
0.20400 0.30363 0.72569
0.32511 0.31233 0.73378
0.40872 0.31834 0.73941
0.48229 0.32363 0.74437
0.55001 0.32850 0.74897
0.61369 0.33307 0.75330
0.67432 0.33743 0.75744
0.73252 0.34162 0.76143
0.78872 0.34566 0.76530
0.22377 0.40158 0.74458
0.34476 0.41028 0.75280
0.42829 0.41628 0.75850
0.50179 0.42157 0.76355
0.56945 0.42643 0.76821
0.63306 0.43100 0.77261
0.69363 0.43536 0.77682
0.75178 0.43954 0.78087
0.80793 0.44358 0.78479
0.24094 0.48779 0.76144
0.36184 0.49648 0.76977
0.44529 0.50248 0.77555
0.51873 0.50776 0.78067
0.58633 0.51262 0.78539
0.64989 0.51719 0.78985
0.71041 0.52154 0.79410
0.76851 0.52571 0.79821
0.82461 0.52975 0.80218
0.25657 0.56715 0.77717
0.37737 0.57583 0.78560
0.46076 0.58183 0.79145
0.53414 0.58710 0.79662
0.60169 0.59196 0.80140
0.66520 0.59652 0.80591
0.72567 0.60087 0.81022
0.78372 0.60505 0.81437
0.83978 0.60908 0.81839
0.27111 0.64177 0.79213
0.39182 0.65045 0.80065
0.47515 0.65644 0.80657
0.54847 0.66171 0.81180
0.61597 0.66657 0.81663
0.67944 0.67113 0.82119
0.73986 0.67548 0.82555
0.79787 0.67965 0.82974
0.85389 0.68368 0.83381
0.28481 0.71283 0.80653
0.40543 0.72150 0.81515
0.48870 0.72749 0.82113
0.56198 0.73276 0.82641
0.62943 0.73761 0.83129
0.69285 0.74217 0.83590
0.75323 0.74651 0.84030
0.81120 0.75068 0.84454
0.86718 0.75471 0.84865
0.29782 0.78105 0.82051
0.41837 0.78972 0.82921
0.50158 0.79570 0.83525
0.57481 0.80097 0.84058
0.64221 0.80582 0.84551
0.70559 0.81037 0.85017
0.76594 0.81471 0.85461
0.82386 0.81888 0.85889
0.87980 0.82290 0.86304
0.31027 0.84693 0.83413
0.43074 0.85559 0.84292
0.51390 0.86157 0.84901
0.58708 0.86684 0.85440
0.65444 0.87168 0.85938
0.71777 0.87624 0.86408
0.77808 0.88057 0.86856
0.83597 0.88474 0.87288
0.89187 0.88876 0.87707
