Sources/PalmierPro/Resources/DomainPacks/LUTs/malay_wedding_lut3.cube
TITLE "malay_wedding_lut3"
LUT_3D_SIZE 33
0.16050 0.14744 0.14206
0.20297 0.15049 0.14479
0.23229 0.15260 0.14668
0.25810 0.15446 0.14835
0.28186 0.15616 0.14988
0.30421 0.15777 0.15133
0.32548 0.15930 0.15271
0.34591 0.16077 0.15404
0.36564 0.16218 0.15532
0.38478 0.16356 0.15657
0.40341 0.16490 0.15778
0.42159 0.16620 0.15897
0.43937 0.16748 0.16013
0.45679 0.16873 0.16127
0.47389 0.16996 0.16239
0.49069 0.17117 0.16349
0.50723 0.17236 0.16457
0.52351 0.17353 0.16564
0.53956 0.17468 0.16670
0.55540 0.17582 0.16774
0.57104 0.17694 0.16877
0.58648 0.17806 0.16979
0.60175 0.17915 0.17079
0.61685 0.18024 0.17179
0.63179 0.18131 0.17278
0.64658 0.18237 0.17375
0.66123 0.18343 0.17472
0.67574 0.18447 0.17568
0.69011 0.18550 0.17664
0.70437 0.18653 0.17758
0.71850 0.18754 0.17852
0.73252 0.18855 0.17945
0.74643 0.18955 0.18038
0.17085 0.19709 0.15128
0.21329 0.20014 0.15403
0.24260 0.20225 0.15594
0.26840 0.20410 0.15762
0.29215 0.20581 0.15917
0.31448 0.20741 0.16063
0.33575 0.20894 0.16202
0.35617 0.21041 0.16336
0.37589 0.21183 0.16465
0.39501 0.21320 0.16590
0.41363 0.21454 0.16713
0.43180 0.21585 0.16832
0.44957 0.21712 0.16949
0.46699 0.21838 0.17064
0.48408 0.21960 0.17177
0.50088 0.22081 0.17288
0.51740 0.22200 0.17397
0.53368 0.22317 0.17505
0.54972 0.22432 0.17611
0.56555 0.22546 0.17716
0.58118 0.22658 0.17820
0.59662 0.22769 0.17923
0.61188 0.22879 0.18024
0.62697 0.22987 0.18125
0.64191 0.23095 0.18224
0.65669 0.23201 0.18323
0.67133 0.23306 0.18420
0.68583 0.23410 0.18517
0.70020 0.23514 0.18613
0.71445 0.23616 0.18708
0.72858 0.23718 0.18803
0.74259 0.23818 0.18897
0.75649 0.23918 0.18990
0.17795 0.23138 0.15769
0.22038 0.23443 0.16046
0.24968 0.23653 0.16237
0.27547 0.23839 0.16406
0.29921 0.24009 0.16562
0.32153 0.24170 0.16709
0.34279 0.24322 0.16849
0.36321 0.24469 0.16983
0.38292 0.24611 0.17113
0.40204 0.24748 0.17240
0.42065 0.24882 0.17363
0.43882 0.25013 0.17483
0.45658 0.25140 0.17600
0.47399 0.25265 0.17716
0.49108 0.25388 0.17829
0.50787 0.25509 0.17941
0.52439 0.25628 0.18051
0.54066 0.25745 0.18159
0.55670 0.25860 0.18266
0.57252 0.25974 0.18372
0.58815 0.26086 0.18476
0.60358 0.26197 0.18579
0.61883 0.26306 0.18681
0.63392 0.26415 0.18782
0.64885 0.26522 0.18882
0.66363 0.26628 0.18981
0.67826 0.26734 0.19079
0.69276 0.26838 0.19177
0.70713 0.26941 0.19273
0.72137 0.27043 0.19369
0.73549 0.27145 0.19464
0.74950 0.27246 0.19558
0.76340 0.27346 0.19652
0.18417 0.26155 0.16336
0.22659 0.26460 0.16614
0.25588 0.26671 0.16807
0.28166 0.26856 0.16977
0.30540 0.27027 0.17133
0.32772 0.27187 0.17281
0.34897 0.27340 0.17421
0.36938 0.27486 0.17556
0.38908 0.27628 0.17687
0.40820 0.27765 0.17814
0.42681 0.27899 0.17937
0.44496 0.28030 0.18058
0.46272 0.28157 0.18176
0.48013 0.28282 0.18292
0.49721 0.28405 0.18406
0.51399 0.28526 0.18518
0.53051 0.28644 0.18629
0.54678 0.28761 0.18738
0.56281 0.28877 0.18845
0.57863 0.28990 0.18951
0.59425 0.29103 0.19056
0.60968 0.29214 0.19159
0.62493 0.29323 0.19262
0.64001 0.29432 0.19363
0.65493 0.29539 0.19464
0.66971 0.29645 0.19563
0.68434 0.29750 0.19662
0.69883 0.29854 0.19760
0.71319 0.29958 0.19857
0.72743 0.30060 0.19953
0.74155 0.30161 0.20049
0.75555 0.30262 0.20144
0.76945 0.30362 0.20238
0.18988 0.28934 0.16860
0.23229 0.29238 0.17140
0.26157 0.29449 0.17334
0.28734 0.29634 0.17504
0.31107 0.29805 0.17661
0.33339 0.29965 0.17809
0.35463 0.30118 0.17951
0.37503 0.30264 0.18086
0.39474 0.30406 0.18217
0.41385 0.30543 0.18345
0.43245 0.30677 0.18469
0.45060 0.30807 0.18590
0.46836 0.30935 0.18709
0.48575 0.31060 0.18826
0.50283 0.31183 0.18940
0.51961 0.31303 0.19053
0.53612 0.31422 0.19164
0.55239 0.31539 0.19273
0.56842 0.31654 0.19381
0.58423 0.31768 0.19487
0.59984 0.31880 0.19592
0.61527 0.31991 0.19696
0.63052 0.32101 0.19799
0.64559 0.32209 0.19901
0.66051 0.32316 0.20002
0.67528 0.32422 0.20102
0.68991 0.32527 0.20201
0.70440 0.32632 0.20300
0.71876 0.32735 0.20397
0.73299 0.32837 0.20494
0.74711 0.32939 0.20590
0.76111 0.33039 0.20685
0.77500 0.33139 0.20779
0.19523 0.31546 0.17356
0.23763 0.31851 0.17637
0.26690 0.32061 0.17831
0.29267 0.32247 0.18002
0.31639 0.32417 0.18160
0.33870 0.32577 0.18309
0.35994 0.32730 0.18451
0.38034 0.32877 0.18587
0.40003 0.33018 0.18719
0.41914 0.33156 0.18847
0.43773 0.33289 0.18971
0.45588 0.33420 0.19093
0.47363 0.33547 0.19212
0.49103 0.33672 0.19329
0.50810 0.33795 0.19444
0.52488 0.33916 0.19557
0.54138 0.34034 0.19668
0.55764 0.34151 0.19778
0.57367 0.34266 0.19887
0.58948 0.34380 0.19993
0.60509 0.34492 0.20099
0.62051 0.34603 0.20204
0.63575 0.34713 0.20307
0.65083 0.34821 0.20409
0.66574 0.34928 0.20511
0.68051 0.35034 0.20611
0.69513 0.35139 0.20710
0.70961 0.35244 0.20809
0.72397 0.35347 0.20907
0.73820 0.35449 0.21004
0.75231 0.35550 0.21100
0.76631 0.35651 0.21196
0.78020 0.35751 0.21291
0.20030 0.34034 0.17830
0.24269 0.34339 0.18112
0.27196 0.34549 0.18307
0.29772 0.34734 0.18479
0.32144 0.34905 0.18637
0.34374 0.35065 0.18786
0.36498 0.35218 0.18929
0.38537 0.35364 0.19065
0.40506 0.35506 0.19198
0.42416 0.35643 0.19326
0.44275 0.35777 0.19451
0.46089 0.35907 0.19574
0.47864 0.36035 0.19693
0.49603 0.36160 0.19811
0.51310 0.36283 0.19926
0.52987 0.36403 0.20040
0.54637 0.36522 0.20151
0.56263 0.36639 0.20261
0.57865 0.36754 0.20370
0.59446 0.36867 0.20477
0.61006 0.36980 0.20584
0.62548 0.37090 0.20688
0.64072 0.37200 0.20792
0.65579 0.37308 0.20895
0.67070 0.37415 0.20997
0.68546 0.37522 0.21097
0.70008 0.37627 0.21197
0.71456 0.37731 0.21296
0.72892 0.37834 0.21394
0.74314 0.37936 0.21492
0.75725 0.38038 0.21589
0.77125 0.38138 0.21685
0.78513 0.38238 0.21780
0.20516 0.36423 0.18286
0.24754 0.36728 0.18569
0.27680 0.36938 0.18765
0.30255 0.37123 0.18938
0.32626 0.37294 0.19097
0.34856 0.37454 0.19247
0.36979 0.37607 0.19389
0.39018 0.37753 0.19527
0.40987 0.37895 0.19659
0.42896 0.38032 0.19788
0.44755 0.38165 0.19914
0.46569 0.38296 0.20037
0.48343 0.38423 0.20157
0.50082 0.38548 0.20275
0.51788 0.38671 0.20391
0.53465 0.38792 0.20504
0.55115 0.38910 0.20617
0.56740 0.39027 0.20727
0.58342 0.39142 0.20836
0.59922 0.39256 0.20944
0.61483 0.39368 0.21050
0.63024 0.39479 0.21156
0.64547 0.39588 0.21260
0.66054 0.39696 0.21363
0.67545 0.39804 0.21465
0.69021 0.39910 0.21566
0.70482 0.40015 0.21666
0.71930 0.40119 0.21766
0.73365 0.40222 0.21864
0.74787 0.40324 0.21962
0.76198 0.40426 0.22059
0.77597 0.40526 0.22156
0.78985 0.40626 0.22251
0.20984 0.38730 0.18729
0.25221 0.39035 0.19013
0.28146 0.39245 0.19210
0.30721 0.39430 0.19383
0.33091 0.39601 0.19542
0.35320 0.39761 0.19693
0.37443 0.39913 0.19836
0.39481 0.40060 0.19974
0.41450 0.40201 0.20107
0.43359 0.40339 0.20237
0.45217 0.40472 0.20363
0.47031 0.40603 0.20486
0.48805 0.40730 0.20606
0.50543 0.40855 0.20725
0.52249 0.40978 0.20841
0.53925 0.41098 0.20955
0.55575 0.41217 0.21068
0.57199 0.41334 0.21179
0.58801 0.41449 0.21288
0.60381 0.41562 0.21396
0.61941 0.41674 0.21503
0.63482 0.41785 0.21609
0.65005 0.41895 0.21713
0.66511 0.42003 0.21817
0.68002 0.42110 0.21919
0.69477 0.42216 0.22021
0.70939 0.42321 0.22121
0.72386 0.42425 0.22221
0.73821 0.42528 0.22320
0.75243 0.42631 0.22418
0.76653 0.42732 0.22515
0.78052 0.42833 0.22612
0.79439 0.42932 0.22708
0.21436 0.40968 0.19160
0.25672 0.41273 0.19445
0.28597 0.41483 0.19642
0.31171 0.41668 0.19816
0.33541 0.41838 0.19976
0.35769 0.41999 0.20127
0.37892 0.42151 0.20271
0.39929 0.42298 0.20409
0.41897 0.42439 0.20543
0.43806 0.42576 0.20673
0.45664 0.42710 0.20799
0.47477 0.42840 0.20923
0.49251 0.42968 0.21044
0.50988 0.43093 0.21162
0.52694 0.43215 0.21279
0.54370 0.43336 0.21394
0.56019 0.43454 0.21507
0.57644 0.43571 0.21618
0.59245 0.43686 0.21728
0.60824 0.43800 0.21836
0.62384 0.43912 0.21944
0.63925 0.44023 0.22050
0.65447 0.44132 0.22154
0.66954 0.44240 0.22258
0.68444 0.44347 0.22361
0.69919 0.44453 0.22463
0.71380 0.44558 0.22564
0.72827 0.44662 0.22664
0.74261 0.44766 0.22763
0.75683 0.44868 0.22862
0.77093 0.44969 0.22959
0.78491 0.45070 0.23056
0.79879 0.45169 0.23153
0.21875 0.43147 0.19581
0.26110 0.43451 0.19867
0.29034 0.43661 0.20065
0.31607 0.43846 0.20239
0.33977 0.44017 0.20400
0.36205 0.44177 0.20551
0.38327 0.44329 0.20696
0.40364 0.44476 0.20834
0.42332 0.44617 0.20968
0.44240 0.44754 0.21099
0.46098 0.44888 0.21226
0.47910 0.45018 0.21350
0.49683 0.45146 0.21471
0.51421 0.45270 0.21590
0.53126 0.45393 0.21707
0.54802 0.45513 0.21822
0.56451 0.45632 0.21935
0.58075 0.45749 0.22047
0.59676 0.45864 0.22157
0.61255 0.45977 0.22266
0.62814 0.46089 0.22374
0.64354 0.46200 0.22480
0.65877 0.46310 0.22585
0.67383 0.46418 0.22690
0.68872 0.46525 0.22793
0.70347 0.46631 0.22895
0.71808 0.46736 0.22996
0.73255 0.46840 0.23096
0.74689 0.46943 0.23196
0.76110 0.47045 0.23295
0.77520 0.47147 0.23393
0.78918 0.47247 0.23490
0.80305 0.47347 0.23587
0.22302 0.45273 0.19993
0.26536 0.45577 0.20280
0.29459 0.45787 0.20479
0.32032 0.45972 0.20654
0.34401 0.46142 0.20815
0.36629 0.46302 0.20967
0.38751 0.46455 0.21111
0.40787 0.46601 0.21251
0.42754 0.46743 0.21385
0.44662 0.46880 0.21516
0.46519 0.47013 0.21643
0.48332 0.47144 0.21768
0.50105 0.47271 0.21889
0.51842 0.47396 0.22009
0.53547 0.47519 0.22126
0.55222 0.47639 0.22242
0.56870 0.47757 0.22355
0.58494 0.47874 0.22467
0.60095 0.47989 0.22578
0.61674 0.48103 0.22687
0.63232 0.48215 0.22795
0.64772 0.48326 0.22902
0.66295 0.48435 0.23007
0.67800 0.48543 0.23112
0.69290 0.48650 0.23215
0.70764 0.48756 0.23318
0.72224 0.48861 0.23419
0.73671 0.48965 0.23520
0.75105 0.49068 0.23620
0.76526 0.49170 0.23719
0.77935 0.49272 0.23817
0.79333 0.49372 0.23915
0.80720 0.49472 0.24012
0.22718 0.47352 0.20398
0.26951 0.47656 0.20686
0.29874 0.47866 0.20885
0.32447 0.48051 0.21060
0.34815 0.48221 0.21222
0.37043 0.48382 0.21374
0.39164 0.48534 0.21520
0.41200 0.48680 0.21659
0.43167 0.48822 0.21794
0.45074 0.48959 0.21925
0.46931 0.49092 0.22053
0.48743 0.49223 0.22178
0.50515 0.49350 0.22300
0.52252 0.49475 0.22420
0.53957 0.49597 0.22538
0.55632 0.49718 0.22653
0.57280 0.49836 0.22767
0.58903 0.49953 0.22880
0.60503 0.50068 0.22991
0.62082 0.50182 0.23100
0.63640 0.50294 0.23209
0.65180 0.50404 0.23316
0.66702 0.50514 0.23421
0.68207 0.50622 0.23526
0.69696 0.50729 0.23630
0.71171 0.50835 0.23733
0.72631 0.50940 0.23835
0.74077 0.51044 0.23936
0.75510 0.51147 0.24036
0.76931 0.51249 0.24135
0.78340 0.51350 0.24234
0.79737 0.51451 0.24332
0.81124 0.51551 0.24429
0.23125 0.49390 0.20795
0.27357 0.49694 0.21084
0.30280 0.49904 0.21284
0.32852 0.50089 0.21460
0.35220 0.50259 0.21622
0.37447 0.50419 0.21775
0.39567 0.50572 0.21921
0.41603 0.50718 0.22061
0.43569 0.50859 0.22196
0.45477 0.50996 0.22328
0.47333 0.51130 0.22456
0.49145 0.51260 0.22581
0.50917 0.51387 0.22704
0.52653 0.51512 0.22824
0.54357 0.51635 0.22942
0.56032 0.51755 0.23058
0.57680 0.51874 0.23172
0.59303 0.51990 0.23285
0.60903 0.52105 0.23396
0.62481 0.52219 0.23506
0.64039 0.52331 0.23615
0.65578 0.52441 0.23722
0.67100 0.52551 0.23828
0.68605 0.52659 0.23934
0.70094 0.52766 0.24038
0.71568 0.52872 0.24141
0.73027 0.52977 0.24243
0.74473 0.53081 0.24344
0.75906 0.53184 0.24445
0.77327 0.53286 0.24545
0.78736 0.53387 0.24644
0.80133 0.53488 0.24742
0.81519 0.53588 0.24839
0.23523 0.51389 0.21187
0.27755 0.51694 0.21477
0.30676 0.51904 0.21677
0.33248 0.52089 0.21853
0.35616 0.52259 0.22016
0.37842 0.52419 0.22170
0.39962 0.52571 0.22316
0.41998 0.52718 0.22456
0.43964 0.52859 0.22592
0.45870 0.52996 0.22724
0.47726 0.53129 0.22852
0.49538 0.53260 0.22978
0.51309 0.53387 0.23101
0.53045 0.53512 0.23221
0.54749 0.53634 0.23340
0.56424 0.53755 0.23456
0.58071 0.53873 0.23571
0.59694 0.53990 0.23684
0.61293 0.54105 0.23796
0.62871 0.54218 0.23906
0.64429 0.54330 0.24015
0.65968 0.54441 0.24123
0.67490 0.54550 0.24229
0.68994 0.54658 0.24335
0.70483 0.54765 0.24439
0.71956 0.54871 0.24542
0.73416 0.54976 0.24645
0.74862 0.55080 0.24747
0.76294 0.55183 0.24847
0.77715 0.55285 0.24947
0.79123 0.55387 0.25047
0.80520 0.55487 0.25145
0.81906 0.55587 0.25243
0.23913 0.53355 0.21573
0.28144 0.53659 0.21863
0.31065 0.53869 0.22064
0.33636 0.54054 0.22241
0.36003 0.54224 0.22405
0.38229 0.54384 0.22558
0.40349 0.54536 0.22705
0.42384 0.54683 0.22846
0.44350 0.54824 0.22982
0.46256 0.54961 0.23114
0.48112 0.55095 0.23243
0.49923 0.55225 0.23369
0.51694 0.55352 0.23493
0.53430 0.55477 0.23613
0.55133 0.55599 0.23732
0.56808 0.55720 0.23849
0.58455 0.55838 0.23964
0.60077 0.55955 0.24078
0.61676 0.56070 0.24190
0.63254 0.56183 0.24300
0.64812 0.56295 0.24409
0.66350 0.56406 0.24517
0.67871 0.56515 0.24624
0.69376 0.56623 0.24730
0.70864 0.56730 0.24835
0.72337 0.56836 0.24938
0.73796 0.56941 0.25041
0.75242 0.57045 0.25143
0.76674 0.57148 0.25244
0.78094 0.57250 0.25345
0.79502 0.57351 0.25444
0.80899 0.57452 0.25543
0.82285 0.57551 0.25641
0.24296 0.55289 0.21954
0.28526 0.55593 0.22245
0.31447 0.55803 0.22447
0.34017 0.55988 0.22624
0.36384 0.56158 0.22788
0.38610 0.56318 0.22942
0.40729 0.56470 0.23089
0.42764 0.56616 0.23231
0.44729 0.56758 0.23367
0.46635 0.56895 0.23500
0.48490 0.57028 0.23629
0.50301 0.57158 0.23755
0.52072 0.57286 0.23879
0.53807 0.57410 0.24000
0.55510 0.57533 0.24120
0.57184 0.57653 0.24237
0.58831 0.57772 0.24352
0.60453 0.57888 0.24466
0.62052 0.58003 0.24578
0.63629 0.58117 0.24689
0.65187 0.58228 0.24799
0.66725 0.58339 0.24907
0.68246 0.58448 0.25014
0.69750 0.58557 0.25120
0.71238 0.58664 0.25225
0.72711 0.58769 0.25329
0.74170 0.58874 0.25432
0.75615 0.58978 0.25534
0.77047 0.59081 0.25636
0.78467 0.59183 0.25736
0.79875 0.59285 0.25836
0.81271 0.59385 0.25935
0.82657 0.59485 0.26034
0.24672 0.57193 0.22330
0.28901 0.57498 0.22622
0.31822 0.57707 0.22824
0.34392 0.57892 0.23002
0.36758 0.58062 0.23167
0.38983 0.58222 0.23321
0.41102 0.58375 0.23469
0.43136 0.58521 0.23611
0.45101 0.58662 0.23748
0.47007 0.58799 0.23881
0.48862 0.58932 0.24010
0.50672 0.59063 0.24137
0.52443 0.59190 0.24261
0.54178 0.59315 0.24383
0.55881 0.59437 0.24502
0.57554 0.59557 0.24620
0.59201 0.59676 0.24735
0.60822 0.59792 0.24849
0.62421 0.59907 0.24962
0.63998 0.60021 0.25073
0.65555 0.60133 0.25183
0.67093 0.60243 0.25292
0.68614 0.60353 0.25399
0.70118 0.60461 0.25505
0.71605 0.60568 0.25611
0.73078 0.60674 0.25715
0.74537 0.60778 0.25818
0.75982 0.60882 0.25921
0.77413 0.60985 0.26023
0.78833 0.61087 0.26124
0.80241 0.61189 0.26224
0.81637 0.61289 0.26323
0.83022 0.61389 0.26422
0.25042 0.59071 0.22702
0.29270 0.59375 0.22995
0.32190 0.59585 0.23198
0.34760 0.59770 0.23376
0.37126 0.59940 0.23541
0.39350 0.60100 0.23696
0.41469 0.60252 0.23844
0.43503 0.60398 0.23986
0.45467 0.60540 0.24124
0.47373 0.60676 0.24257
0.49227 0.60810 0.24387
0.51037 0.60940 0.24514
0.52807 0.61067 0.24638
0.54542 0.61192 0.24760
0.56245 0.61314 0.24880
0.57918 0.61435 0.24998
0.59564 0.61553 0.25114
0.61186 0.61670 0.25228
0.62784 0.61785 0.25341
0.64361 0.61898 0.25453
0.65918 0.62010 0.25563
0.67455 0.62120 0.25672
0.68976 0.62230 0.25780
0.70479 0.62338 0.25886
0.71967 0.62445 0.25992
0.73439 0.62551 0.26097
0.74897 0.62655 0.26200
0.76342 0.62759 0.26303
0.77774 0.62862 0.26405
0.79193 0.62964 0.26506
0.80600 0.63065 0.26607
0.81996 0.63166 0.26706
0.83381 0.63265 0.26805
0.25406 0.60924 0.23070
0.29634 0.61227 0.23364
0.32553 0.61437 0.23567
0.35122 0.61622 0.23746
0.37487 0.61792 0.23911
0.39712 0.61952 0.24067
0.41830 0.62104 0.24215
0.43863 0.62250 0.24358
0.45827 0.62392 0.24496
0.47733 0.62529 0.24629
0.49587 0.62662 0.24760
0.51396 0.62792 0.24887
0.53166 0.62919 0.25012
0.54901 0.63044 0.25134
0.56603 0.63166 0.25254
0.58276 0.63287 0.25372
0.59922 0.63405 0.25489
0.61543 0.63522 0.25604
0.63141 0.63636 0.25717
0.64717 0.63750 0.25829
0.66274 0.63862 0.25939
0.67812 0.63972 0.26048
0.69331 0.64082 0.26156
0.70835 0.64190 0.26263
0.72322 0.64297 0.26369
0.73794 0.64402 0.26474
0.75252 0.64507 0.26578
0.76696 0.64611 0.26681
0.78128 0.64714 0.26783
0.79547 0.64816 0.26885
0.80954 0.64917 0.26985
0.82350 0.65018 0.27085
0.83734 0.65117 0.27185
0.25764 0.62752 0.23435
0.29991 0.63056 0.23729
0.32910 0.63266 0.23933
0.35478 0.63451 0.24113
0.37843 0.63621 0.24278
0.40067 0.63781 0.24434
0.42185 0.63933 0.24583
0.44218 0.64079 0.24726
0.46182 0.64220 0.24864
0.48087 0.64357 0.24998
0.49941 0.64491 0.25129
0.51750 0.64621 0.25256
0.53520 0.64748 0.25381
0.55254 0.64873 0.25504
0.56956 0.64995 0.25625
0.58628 0.65115 0.25743
0.60274 0.65233 0.25860
0.61895 0.65350 0.25975
0.63492 0.65465 0.26088
0.65069 0.65578 0.26200
0.66625 0.65690 0.26311
0.68162 0.65801 0.26421
0.69682 0.65910 0.26529
0.71185 0.66018 0.26636
0.72672 0.66125 0.26742
0.74144 0.66231 0.26848
0.75601 0.66336 0.26952
0.77046 0.66439 0.27055
0.78477 0.66542 0.27158
0.79895 0.66644 0.27260
0.81302 0.66745 0.27360
0.82698 0.66846 0.27461
0.84082 0.66945 0.27560
0.26117 0.64559 0.23796
0.30343 0.64863 0.24091
0.33262 0.65073 0.24295
0.35830 0.65257 0.24475
0.38194 0.65427 0.24641
0.40418 0.65587 0.24798
0.42535 0.65739 0.24947
0.44568 0.65886 0.25090
0.46531 0.66027 0.25229
0.48436 0.66164 0.25363
0.50289 0.66297 0.25494
0.52098 0.66427 0.25622
0.53868 0.66554 0.25748
0.55602 0.66679 0.25871
0.57303 0.66801 0.25991
0.58976 0.66922 0.26110
0.60621 0.67040 0.26227
0.62241 0.67156 0.26343
0.63839 0.67271 0.26457
0.65415 0.67385 0.26569
0.66971 0.67496 0.26680
0.68508 0.67607 0.26790
0.70027 0.67716 0.26898
0.71530 0.67824 0.27006
0.73016 0.67931 0.27112
0.74488 0.68037 0.27218
0.75946 0.68142 0.27322
0.77389 0.68246 0.27426
0.78820 0.68348 0.27529
0.80239 0.68450 0.27631
0.81645 0.68552 0.27732
0.83041 0.68652 0.27832
0.84425 0.68751 0.27932
0.26466 0.66345 0.24153
0.30691 0.66649 0.24449
0.33608 0.66859 0.24654
0.36176 0.67043 0.24835
0.38540 0.67213 0.25001
0.40763 0.67373 0.25158
0.42880 0.67525 0.25308
0.44913 0.67671 0.25451
0.46876 0.67813 0.25590
0.48780 0.67949 0.25725
0.50633 0.68083 0.25857
0.52442 0.68213 0.25985
0.54211 0.68340 0.26111
0.55945 0.68465 0.26234
0.57646 0.68587 0.26355
0.59318 0.68707 0.26474
0.60963 0.68825 0.26592
0.62583 0.68942 0.26707
0.64180 0.69057 0.26821
0.65756 0.69170 0.26934
0.67312 0.69282 0.27045
0.68848 0.69392 0.27155
0.70368 0.69502 0.27264
0.71870 0.69610 0.27372
0.73356 0.69717 0.27479
0.74828 0.69822 0.27585
0.76285 0.69927 0.27689
0.77729 0.70031 0.27793
0.79159 0.70134 0.27896
0.80577 0.70236 0.27999
0.81984 0.70337 0.28100
0.83379 0.70437 0.28201
0.84763 0.70537 0.28301
0.26809 0.68111 0.24508
0.31034 0.68415 0.24805
0.33951 0.68625 0.25011
0.36518 0.68809 0.25192
0.38882 0.68979 0.25359
0.41104 0.69139 0.25516
0.43221 0.69291 0.25666
0.45253 0.69437 0.25810
0.47216 0.69579 0.25949
0.49120 0.69715 0.26084
0.50973 0.69849 0.26216
0.52781 0.69979 0.26345
0.54550 0.70106 0.26471
0.56283 0.70231 0.26594
0.57984 0.70353 0.26716
0.59656 0.70473 0.26835
0.61300 0.70591 0.26953
0.62920 0.70708 0.27069
0.64517 0.70823 0.27183
0.66093 0.70936 0.27296
0.67648 0.71048 0.27408
0.69185 0.71158 0.27518
0.70703 0.71267 0.27627
0.72205 0.71375 0.27735
0.73692 0.71482 0.27842
0.75163 0.71588 0.27948
0.76620 0.71693 0.28054
0.78063 0.71797 0.28158
0.79493 0.71899 0.28261
0.80911 0.72001 0.28364
0.82317 0.72103 0.28465
0.83712 0.72203 0.28566
0.85096 0.72302 0.28666
0.27148 0.69859 0.24860
0.31372 0.70163 0.25158
0.34288 0.70372 0.25364
0.36855 0.70557 0.25545
0.39218 0.70727 0.25713
0.41441 0.70887 0.25870
0.43557 0.71039 0.26021
0.45589 0.71185 0.26165
0.47551 0.71326 0.26305
0.49455 0.71463 0.26440
0.51307 0.71596 0.26572
0.53115 0.71726 0.26701
0.54884 0.71853 0.26828
0.56617 0.71978 0.26952
0.58317 0.72100 0.27073
0.59989 0.72220 0.27193
0.61633 0.72339 0.27311
0.63253 0.72455 0.27427
0.64850 0.72570 0.27542
0.66425 0.72683 0.27655
0.67980 0.72795 0.27767
0.69516 0.72905 0.27878
0.71035 0.73015 0.27987
0.72536 0.73123 0.28096
0.74022 0.73229 0.28203
0.75493 0.73335 0.28309
0.76950 0.73440 0.28415
0.78393 0.73544 0.28519
0.79823 0.73647 0.28623
0.81241 0.73749 0.28725
0.82647 0.73850 0.28827
0.84041 0.73950 0.28929
0.85425 0.74049 0.29029
0.27483 0.71589 0.25210
0.31706 0.71893 0.25508
0.34622 0.72102 0.25715
0.37188 0.72287 0.25897
0.39551 0.72457 0.26064
0.41773 0.72617 0.26222
0.43889 0.72769 0.26373
0.45921 0.72915 0.26518
0.47883 0.73056 0.26658
0.49786 0.73193 0.26794
0.51638 0.73326 0.26926
0.53446 0.73456 0.27056
0.55214 0.73583 0.27182
0.56946 0.73708 0.27306
0.58647 0.73830 0.27429
0.60318 0.73950 0.27549
0.61962 0.74068 0.27667
0.63582 0.74185 0.27783
0.65178 0.74300 0.27898
0.66753 0.74413 0.28012
0.68308 0.74525 0.28124
0.69844 0.74635 0.28235
0.71362 0.74744 0.28345
0.72863 0.74852 0.28453
0.74349 0.74959 0.28561
0.75820 0.75065 0.28667
0.77276 0.75170 0.28773
0.78719 0.75273 0.28878
0.80149 0.75376 0.28982
0.81566 0.75478 0.29085
0.82972 0.75579 0.29187
0.84366 0.75679 0.29288
0.85750 0.75779 0.29389
0.27813 0.73303 0.25556
0.32036 0.73606 0.25856
0.34951 0.73816 0.26063
0.37517 0.74000 0.26245
0.39880 0.74170 0.26413
0.42101 0.74330 0.26572
0.44217 0.74482 0.26723
0.46248 0.74628 0.26868
0.48210 0.74769 0.27008
0.50112 0.74906 0.27145
0.51964 0.75039 0.27277
0.53772 0.75169 0.27407
0.55540 0.75296 0.27534
0.57272 0.75421 0.27659
0.58972 0.75543 0.27781
0.60643 0.75663 0.27901
0.62287 0.75781 0.28020
0.63906 0.75898 0.28137
0.65502 0.76012 0.28252
0.67077 0.76126 0.28366
0.68631 0.76237 0.28478
0.70167 0.76348 0.28590
0.71685 0.76457 0.28700
0.73186 0.76565 0.28808
0.74672 0.76672 0.28916
0.76142 0.76778 0.29023
0.77599 0.76882 0.29129
0.79041 0.76986 0.29234
0.80471 0.77089 0.29338
0.81888 0.77191 0.29441
0.83293 0.77292 0.29544
0.84687 0.77392 0.29646
0.86070 0.77492 0.29747
0.28140 0.75000 0.25901
0.32362 0.75303 0.26201
0.35277 0.75513 0.26409
0.37842 0.75697 0.26591
0.40204 0.75867 0.26760
0.42426 0.76027 0.26919
0.44541 0.76179 0.27070
0.46572 0.76325 0.27216
0.48533 0.76466 0.27357
