Sources/PalmierPro/Resources/DomainPacks/LUTs/malay_wedding_lut3.cube
TITLE "malay_wedding_lut3"
LUT_3D_SIZE 5
0.16050 0.14744 0.14206
0.36564 0.16218 0.15532
0.50723 0.17236 0.16457
0.63179 0.18131 0.17278
0.74643 0.18955 0.18038
0.20984 0.38730 0.18729
0.41450 0.40201 0.20107
0.55575 0.41217 0.21068
0.68002 0.42110 0.21919
0.79439 0.42932 0.22708
0.24296 0.55289 0.21954
0.44729 0.56758 0.23367
0.58831 0.57772 0.24352
0.71238 0.58664 0.25225
0.82657 0.59485 0.26034
0.27148 0.69859 0.24860
0.47551 0.71326 0.26305
0.61633 0.72339 0.27311
0.74022 0.73229 0.28203
0.85425 0.74049 0.29029
0.29721 0.83271 0.27592
0.50097 0.84736 0.29066
0.64161 0.85747 0.30092
0.76533 0.86637 0.31001
0.87921 0.87456 0.31843
0.16556 0.15245 0.33685
0.37065 0.16719 0.35017
0.51220 0.17736 0.35946
0.63673 0.18631 0.36769
0.75135 0.19455 0.37532
0.21473 0.39230 0.38226
0.41934 0.40701 0.39609
0.56056 0.41716 0.40573
0.68480 0.42609 0.41428
0.79914 0.43431 0.42220
0.24774 0.55788 0.41463
0.45202 0.57256 0.42881
0.59301 0.58270 0.43870
0.71705 0.59162 0.44746
0.83121 0.59983 0.45557
0.27616 0.70357 0.44380
0.48014 0.71824 0.45829
0.62093 0.72836 0.46839
0.74479 0.73727 0.47734
0.85879 0.74547 0.48563
0.30179 0.83769 0.47122
0.50551 0.85234 0.48600
0.64611 0.86245 0.49630
0.76981 0.87134 0.50542
0.88365 0.87953 0.51387
0.16904 0.15591 0.47138
0.37410 0.17064 0.48474
0.51562 0.18081 0.49405
0.64014 0.18976 0.50230
0.75473 0.19800 0.50996
0.21810 0.39575 0.51691
0.42267 0.41046 0.53078
0.56387 0.42061 0.54045
0.68809 0.42954 0.54901
0.80242 0.43775 0.55695
0.25103 0.56132 0.54936
0.45527 0.57601 0.56359
0.59624 0.58614 0.57349
0.72026 0.59506 0.58228
0.83440 0.60326 0.59041
0.27938 0.70701 0.57861
0.48333 0.72168 0.59314
0.62409 0.73180 0.60326
0.74794 0.74071 0.61224
0.86191 0.74890 0.62055
0.30495 0.84112 0.60609
0.50863 0.85577 0.62091
0.64921 0.86588 0.63124
0.77289 0.87477 0.64038
0.88672 0.88296 0.64885
0.17209 0.15895 0.58980
0.37712 0.17368 0.60319
0.51863 0.18385 0.61252
0.64313 0.19280 0.62080
0.75771 0.20104 0.62847
0.22105 0.39879 0.63544
0.42560 0.41349 0.64934
0.56678 0.42364 0.65903
0.69098 0.43257 0.66761
0.80529 0.44079 0.67557
0.25392 0.56435 0.66796
0.45813 0.57904 0.68222
0.59908 0.58917 0.69215
0.72308 0.59809 0.70095
0.83720 0.60629 0.70910
0.28221 0.71004 0.69727
0.48613 0.72470 0.71183
0.62687 0.73483 0.72198
0.75070 0.74373 0.73097
0.86466 0.75192 0.73930
0.30772 0.84415 0.72482
0.51138 0.85879 0.73967
0.65193 0.86890 0.75001
0.77559 0.87779 0.75918
0.88940 0.88598 0.76767
0.17490 0.16175 0.69884
0.37990 0.17648 0.71226
0.52139 0.18665 0.72161
0.64587 0.19560 0.72990
0.76044 0.20383 0.73759
0.22377 0.40158 0.74458
0.42829 0.41628 0.75850
0.56945 0.42643 0.76821
0.69363 0.43536 0.77682
0.80793 0.44358 0.78479
0.25657 0.56715 0.77717
0.46076 0.58183 0.79145
0.60169 0.59196 0.80140
0.72567 0.60087 0.81022
0.83978 0.60908 0.81839
0.28481 0.71283 0.80653
0.48870 0.72749 0.82113
0.62943 0.73761 0.83129
0.75323 0.74651 0.84030
0.86718 0.75471 0.84865
0.31027 0.84693 0.83413
0.51390 0.86157 0.84901
0.65444 0.87168 0.85938
0.77808 0.88057 0.86856
0.89187 0.88876 0.87707
