Sources/PalmierPro/Resources/DomainPacks/LUTs/malay_wedding_lut2.cube
TITLE "malay_wedding_lut2"
LUT_3D_SIZE 5
0.06070 0.03986 0.03084
0.21491 0.03607 0.02636
0.40734 0.03137 0.02081
0.61737 0.02629 0.01481
0.83967 0.02095 0.00852
0.05134 0.18413 0.01589
0.20535 0.18043 0.01152
0.39754 0.17583 0.00612
0.60730 0.17086 0.00027
0.82931 0.16564 0.00000
0.03872 0.36463 0.00000
0.19249 0.36102 0.00000
0.38437 0.35655 0.00000
0.59380 0.35172 0.00000
0.81545 0.34665 0.00000
0.02376 0.56221 0.00000
0.17726 0.55872 0.00000
0.36881 0.55439 0.00000
0.57786 0.54971 0.00000
0.79913 0.54480 0.00000
0.00657 0.77201 0.00000
0.15979 0.76864 0.00000
0.35098 0.76446 0.00000
0.55965 0.75993 0.00000
0.78051 0.75520 0.00000
0.05978 0.03857 0.18624
0.21398 0.03479 0.18177
0.40638 0.03010 0.17623
0.61639 0.02503 0.17025
0.83865 0.01970 0.16398
0.05035 0.18287 0.17133
0.20435 0.17917 0.16697
0.39651 0.17459 0.16158
0.60625 0.16962 0.15576
0.82823 0.16442 0.14965
0.03765 0.36340 0.15326
0.19140 0.35980 0.14905
0.38326 0.35535 0.14384
0.59266 0.35052 0.13821
0.81428 0.34546 0.13231
0.02260 0.56103 0.13422
0.17609 0.55754 0.13016
0.36760 0.55322 0.12515
0.57664 0.54855 0.11973
0.79787 0.54365 0.11407
0.00532 0.77086 0.11484
0.15852 0.76749 0.11095
0.34968 0.76333 0.10614
0.55832 0.75882 0.10096
0.77915 0.75409 0.09553
0.05863 0.03696 0.38024
0.21280 0.03319 0.37579
0.40518 0.02852 0.37027
0.61515 0.02346 0.36430
0.83738 0.01815 0.35806
0.04912 0.18130 0.36538
0.20309 0.17761 0.36104
0.39522 0.17304 0.35567
0.60492 0.16809 0.34986
0.82687 0.16290 0.34378
0.03631 0.36187 0.34737
0.19004 0.35828 0.34317
0.38186 0.35384 0.33798
0.59123 0.34903 0.33237
0.81282 0.34399 0.32650
0.02115 0.55954 0.32840
0.17461 0.55607 0.32436
0.36609 0.55176 0.31936
0.57509 0.54711 0.31396
0.79629 0.54223 0.30832
0.00375 0.76943 0.30909
0.15692 0.76607 0.30522
0.34805 0.76192 0.30043
0.55666 0.75742 0.29526
0.77745 0.75271 0.28985
0.05736 0.03522 0.59210
0.21150 0.03145 0.58766
0.40385 0.02679 0.58216
0.61378 0.02175 0.57622
0.83597 0.01646 0.56999
0.04776 0.17959 0.57729
0.20170 0.17591 0.57296
0.39380 0.17135 0.56761
0.60346 0.16642 0.56182
0.82537 0.16124 0.55577
0.03484 0.36021 0.55935
0.18854 0.35663 0.55517
0.38033 0.35220 0.54999
0.58966 0.34741 0.54440
0.81121 0.34238 0.53855
0.01955 0.55793 0.54045
0.17298 0.55447 0.53642
0.36443 0.55018 0.53144
0.57339 0.54554 0.52607
0.79456 0.54067 0.52045
0.00202 0.76787 0.52122
0.15516 0.76453 0.51736
0.34626 0.76039 0.51259
0.55483 0.75591 0.50744
0.77558 0.75121 0.50206
0.05600 0.03337 0.81645
0.21012 0.02962 0.81203
0.40242 0.02498 0.80655
0.61232 0.01995 0.80063
0.83447 0.01467 0.79443
0.04630 0.17778 0.80170
0.20022 0.17412 0.79739
0.39228 0.16957 0.79206
0.60191 0.16466 0.78630
0.82377 0.15950 0.78026
0.03326 0.35845 0.78383
0.18693 0.35489 0.77966
0.37869 0.35047 0.77451
0.58798 0.34569 0.76894
0.80949 0.34068 0.76312
0.01784 0.55623 0.76501
0.17124 0.55278 0.76100
0.36266 0.54850 0.75604
0.57158 0.54388 0.75069
0.79270 0.53903 0.74509
0.00017 0.76623 0.74586
0.15328 0.76290 0.74201
0.34435 0.75877 0.73726
0.55288 0.75431 0.73214
0.77359 0.74963 0.72678
